;Project loidolt@gmail
;Created by Estlcam version 8 build 8.214
;Machining time about 12:11:25 AM hours

G90
M03 S24000
G00 Z2.0000


;No. 1: Engraving 47
G00 X96.0772 Y50.9380
G00 Z0.5000
G01 Z-2.0000 F180 S24000
G01 X99.3766 Y49.7140 F1200
G01 X100.9203 Y48.9955
G01 X102.6221 Y46.6805
G01 X104.0053 Y45.1116
G01 X107.0126 Y44.5260
G01 X110.0713 Y45.0841
G01 X111.5347 Y45.8026
G01 X113.2102 Y46.5739
G01 X115.6054 Y46.6541
G01 X117.7599 Y46.2817
G01 X122.2031 Y45.4829
G01 X124.9959 Y44.7919
G01 X128.0031 Y42.8757
G01 X128.8546 Y42.3966
G01 X133.1109 Y41.4397
G01 X134.9205 Y41.4122
G01 X136.4367 Y42.7703
G01 X137.6606 Y43.8074
G01 X139.7349 Y44.2326
G01 X141.2247 Y44.6326
G01 X143.1936 Y45.6434
G00 Z2.0000


;No. 2: Engraving 50
G00 X138.1277 Y53.9260 Z2.0000
G00 Z0.5000
G01 Z-2.0000 F180
G01 X138.6822 Y53.6135 F1200
G01 X139.9660 Y52.7644
G01 X140.3648 Y51.9320
G01 X140.8151 Y51.2901
G01 X141.4930 Y50.7392
G00 Z2.0000


;No. 3: Engraving 49
G00 X135.6882 Y56.0063 Z2.0000
G00 Z0.5000
G01 Z-2.0000 F180
G01 X136.3373 Y56.8829 F1200
G01 X136.7289 Y57.7285
G01 X137.2965 Y58.2338
G01 X137.7193 Y58.4291
G01 X137.8846 Y58.2650
G01 X138.0798 Y57.6350
G01 X138.4714 Y57.0997
G01 X138.9157 Y56.5332
G01 X139.8331 Y56.1105
G01 X140.3900 Y55.7488
G01 X141.0331 Y55.7033
G01 X141.3792 Y55.0087
G01 X141.5181 Y54.6590
G01 X142.0223 Y54.4781
G01 X142.7373 Y54.6614
G01 X143.3229 Y54.9356
G01 X143.6475 Y54.7907
G01 X143.5277 Y54.4302
G01 X143.2798 Y53.9656
G01 X142.9924 Y52.4901
G01 X143.1133 Y50.4769
G01 X143.2559 Y49.9775
G01 X142.9229 Y49.6589
G01 X142.5565 Y49.7224
G01 X141.8906 Y50.1835
G01 X141.6990 Y50.5967
G01 X141.4930 Y50.7392
G01 X141.2067 Y50.4374
G01 X141.2403 Y49.9093
G01 X141.2127 Y49.3188
G01 X141.4020 Y48.7332
G01 X142.4822 Y47.4338
G01 X143.1732 Y46.9092
G01 X143.7062 Y46.7320
G01 X144.7864 Y46.9452
G01 X146.4918 Y47.6038
G01 X147.2691 Y48.4446
G01 X147.6056
G01 X148.0271 Y48.0841
G01 X148.0631 Y47.8314
G01 X147.4379 Y47.0122
G01 X146.7050 Y46.3727
G01 X146.4918 Y46.0733
G01 X146.4499 Y45.5859
G01 X146.6726 Y45.2565
G01 X147.3780 Y44.7811
G01 X149.1852 Y42.9571
G01 X151.1002 Y41.6948
G01 X152.2823 Y40.3775
G01 X152.4906 Y39.8409
G01 X152.4032 Y38.5475
G01 X151.6619 Y37.5475
G00 Z2.0000


;No. 4: Engraving 51
G00 X183.0525 Y45.8913 Z2.0000
G00 Z0.5000
G01 Z-2.0000 F180
G01 X182.0980 Y46.3907 F1200
G01 X181.7686 Y46.6649
G01 X181.6716 Y46.9943
G01 X182.2142 Y47.9033
G01 X182.3016 Y48.3056
G01 X182.2046 Y48.6841
G01 X181.5231 Y49.9584
G01 X181.1339 Y50.4649
G01 X179.7016 Y51.1727
G01 X179.1363 Y51.5632
G01 X178.4776 Y51.7823
G01 X176.8177 Y51.8985
G01 X175.7243 Y51.6422
G01 X175.5207 Y51.4158
G01 X175.6309 Y51.2578
G01 X176.0213 Y51.0685
G01 X176.7722 Y50.8853
G01 X177.2453 Y50.6051
G01 X177.2405 Y50.1967
G01 X176.9518 Y49.8853
G01 X174.3051 Y49.0805
G01 X172.9662 Y48.8913
G01 X171.0883 Y48.4278
G01 X168.5901 Y48.6470
G01 X167.3195 Y48.4518
G01 X166.4955 Y48.4649
G01 X164.9841 Y48.7392
G01 X164.5757 Y48.9152
G01 X164.3123 Y49.2386
G01 X163.7650 Y50.2266
G01 X163.3661 Y50.4410
G01 X162.6751 Y50.5931
G01 X161.9015 Y51.0805
G01 X161.4835 Y51.6170
G01 X160.9051 Y53.8614
G01 X159.8703 Y55.2590
G01 X159.5506 Y55.8195
G01 X159.4260 Y56.2350
G01 X159.4727 Y59.9979
G01 X159.3937 Y60.4734
G01 X158.5026 Y61.3824
G01 X156.4404 Y62.6207
G01 X155.5781 Y63.4926
G01 X154.4427 Y64.1752
G01 X154.1457 Y64.4686
G01 X152.7829 Y66.6159
G01 X152.6811 Y67.0794
G01 X152.8200 Y68.4758
G01 X152.5745 Y69.6830
G01 X152.2966 Y72.8794
G01 X152.0966 Y73.5932
G01 X150.5445 Y75.6543
G01 X149.8583 Y77.7645
G01 X149.6775 Y79.2100
G01 X149.4499 Y79.8088
G01 X149.2224 Y80.0950
G01 X145.9684 Y82.4064
G01 X144.8846 Y83.8280
G01 X144.1840 Y85.2424
G01 X143.4607 Y88.0244
G01 X143.0068 Y89.3538
G01 X142.6355 Y89.7993
G01 X141.3517 Y90.7502
G01 X139.4978 Y91.6232
G01 X138.8115 Y92.1658
G01 X138.3528 Y92.6233
G01 X137.1337 Y94.6484
G01 X136.9624 Y96.8017
G01 X136.3924 Y98.3814
G01 X135.9888 Y100.0772
G01 X135.7983 Y101.4257
G01 X135.4187 Y102.9071
G01 X135.2295 Y103.5886
G01 X135.9001 Y104.1275
G01 X136.7492 Y104.6640
G01 X136.8834 Y104.9814
G01 X136.8930 Y105.6772
G01 X137.0690 Y106.2317
G01 X137.3516 Y106.6341
G01 X138.0187 Y107.2688
G01 X139.1828 Y108.1287
G01 X139.2990 Y108.5922
G01 X138.9181 Y110.1180
G01 X138.7564 Y110.2880
G01 X137.9864 Y110.6425
G01 X136.7121 Y112.2401
G01 X136.2486 Y112.6796
G01 X135.4187 Y113.2042
G01 X134.6582 Y113.8988
G01 X133.5828 Y115.4054
G01 X133.0594 Y115.9180
G01 X132.9109 Y116.2785
G01 X133.3600 Y117.1875
G01 X133.4247 Y117.7420
G01 X133.1744 Y118.2797
G01 X132.5768 Y119.1084
G01 X131.7145 Y120.0114
G01 X130.7324 Y120.8713
G01 X130.2821 Y121.4078
G01 X129.2845 Y123.1528
G00 Z2.0000


;No. 5: Engraving 52
G00 X119.9791 Y117.0150 Z2.0000
G00 Z0.5000
G01 Z-2.0000 F180
G01 X120.9372 Y116.6629 F1200
G01 X122.2066 Y115.9491
G01 X122.4905 Y115.6377
G01 X122.7815 Y114.4306
G01 X123.0186 Y113.8198
G01 X123.6354 Y112.8497
G01 X124.9468 Y111.1970
G01 X125.6330 Y109.9707
G01 X126.7731 Y108.6772
G01 X127.9372 Y107.7012
G01 X128.6965 Y107.1838
G01 X129.7121 Y106.6652
G01 X130.9732 Y105.7251
G01 X131.4786 Y105.1766
G01 X131.6869 Y104.6221
G01 X131.7289 Y104.2437
G01 X131.3720 Y102.6149
G01 X131.4690 Y102.2676
G01 X131.7612 Y102.1514
G01 X133.0271 Y102.7000
G01 X133.8750 Y102.8952
G01 X134.8666 Y103.2976
G01 X135.2295 Y103.5886
G00 Z2.0000


;No. 6: Engraving 53
G00 X124.7731 Y104.9167 Z2.0000
G00 Z0.5000
G01 Z-2.0000 F180
G01 X124.4067 Y104.4880 F1200
G01 X124.0294 Y104.7072
G01 X123.3899 Y105.4209
G01 X122.9767 Y105.4509
G01 X122.0545 Y105.3598
G01 X121.4845 Y105.0784
G01 X121.2761 Y104.8353
G01 X121.1132 Y104.4509
G01 X120.9935 Y102.9862
G01 X120.8677 Y102.5167
G01 X119.9408 Y100.9371
G01 X119.8390 Y100.5287
G01 X119.9216 Y100.3335
G01 X120.4869 Y99.7850
G01 X120.6917 Y99.4185
G01 X120.8306 Y98.9490
G01 X120.8677 Y98.2532
G01 X120.5755 Y97.4604
G01 X120.1491 Y96.9107
G01 X119.6390 Y96.5454
G01 X119.2497 Y96.4963
G01 X118.9575 Y96.5814
G01 X118.1144 Y97.1311
G01 X117.4330 Y97.7466
G01 X116.9455 Y98.3993
G01 X116.1994 Y99.7107
G01 X116.0797 Y100.0951
G01 X115.8701 Y102.3886
G01 X115.6198 Y103.0724
G01 X114.2533 Y104.9694
G01 X112.6305 Y108.0317
G01 X110.5766 Y110.2461
G01 X110.3814 Y110.3000
G01 X110.0760 Y110.0569
G01 X109.9467 Y109.6413
G01 X109.9742 Y109.0197
G01 X110.6090 Y107.3479
G01 X110.6784 Y106.8173
G01 X110.5635 Y106.0485
G01 X110.6006 Y105.5431
G01 X111.3096 Y104.7922
G01 X111.4665 Y104.4077
G01 X111.3874 Y103.7251
G01 X111.1287 Y103.0053
G01 X110.9898 Y101.8520
G01 X110.6784 Y101.1934
G01 X110.2892 Y101.0712
G01 X109.9275 Y101.5407
G01 X109.5479 Y102.3275
G01 X109.3575 Y102.8832
G01 X109.1910 Y103.8592
G01 X109.0150 Y104.2976
G01 X108.6245 Y104.8772
G01 X107.9395 Y105.5790
G01 X106.6317 Y106.3048
G01 X106.0712 Y106.8293
G01 X105.6449 Y107.0066
G01 X103.5814 Y107.4760
G01 X102.5622 Y107.5191
G01 X101.3239 Y107.8724
G01 X100.9251 Y107.7682
G01 X100.3323 Y106.8784
G01 X99.7442 Y106.4269
G01 X99.2101 Y105.7251
G01 X98.8448 Y105.4269
G01 X98.4221 Y105.2616
G01 X97.9263 Y105.2676
G01 X97.6484 Y105.5119
G01 X97.4161 Y106.1467
G01 X97.3143 Y107.4581
G01 X97.1945 Y107.9156
G01 X96.7766 Y108.5862
G01 X96.1610 Y109.0988
G01 X95.4376 Y109.8736
G01 X95.2245 Y110.0437
G01 X94.9227 Y110.0988
G01 X94.7095 Y109.7946
G01 X94.5334 Y108.6772
G01 X94.3155 Y108.2449
G01 X93.8700 Y107.7814
G01 X92.4197 Y106.9395
G01 X91.6688 Y106.3419
G01 X91.2556 Y105.5850
G01 X91.0747 Y104.7862
G01 X90.8580 Y104.3658
G01 X90.3155 Y104.1455
G01 X89.4663 Y104.0664
G01 X88.4101 Y103.6700
G01 X87.3023 Y103.4257
G01 X86.4256 Y102.8892
G01 X86.0831 Y102.4449
G01 X86.0041 Y102.0233
G01 X86.3334 Y101.2365
G01 X86.8939 Y100.6449
G01 X87.0472 Y100.2484
G01 X86.7729 Y99.8389
G01 X84.9561 Y99.3574
G01 X84.1633 Y99.0281
G01 X83.5286 Y98.9670
G01 X83.1070 Y99.0712
G01 X82.7358 Y99.2784
G01 X82.4208 Y99.6317
G01 X81.7585 Y100.7538
G01 X81.4615 Y100.9131
G01 X80.7657 Y100.9311
G01 X80.3861 Y100.7790
G01 X80.1585 Y100.4125
G01 X80.1777 Y99.9981
G01 X80.5058 Y98.5215
G01 X80.9657 Y97.6868
G01 X81.1418 Y97.1311
G01 X80.9741 Y96.1981
G01 Y95.6185
G01 X81.2160 Y94.1358
G01 X81.0627 Y93.7766
G01 X80.8256 Y93.7275
G01 X80.0244 Y93.9718
G01 X79.6579 Y93.9837
G01 X78.4340 Y93.7825
G01 X77.7801 Y93.8125
G01 X77.3537 Y93.6724
G01 X77.1645 Y93.4472
G01 X77.0208 Y93.0448
G01 X76.8040 Y91.9825
G00 Z2.0000


;No. 7: Engraving 43
G00 X79.5741 Y85.2304 Z2.0000
G00 Z0.5000
G01 Z-2.0000 F180
G01 X80.3944 Y84.5106 F1200
G01 X81.1777 Y83.2855
G01 X81.5813 Y81.7717
G01 X81.7945 Y81.4064
G01 X83.1525 Y80.0220
G01 X83.5933 Y79.8447
G01 X84.2005 Y79.7537
G01 X84.5801 Y79.5944
G00 Z2.0000


;No. 8: Engraving 41
G00 X88.0113 Y70.9273 Z2.0000
G00 Z0.5000
G01 Z-2.0000 F180
G01 X88.2711 Y73.2758 F1200
G01 X88.5119 Y73.8854
G01 X90.2125 Y75.0998
G01 X90.4316 Y75.5082
G01 X90.5466 Y76.2459
G01 X90.4580 Y76.7154
G01 X89.6843 Y78.2040
G01 X89.2628 Y79.7465
G01 X89.0496 Y80.1130
G01 X88.0436 Y80.8567
G01 X87.6532 Y80.6376
G01 X87.3406 Y80.8052
G01 X86.9035 Y81.3885
G01 X86.5597 Y81.4615
G01 X86.2723 Y81.2962
G01 X85.2711 Y80.0340
G01 X84.6639 Y79.4914
G01 X84.7801 Y79.0208
G01 X84.6963 Y78.3693
G01 X84.9370 Y77.3322
G01 X85.0029 Y76.6363
G01 X84.7238 Y75.5932
G01 X84.5250 Y74.3250
G01 X84.0759 Y73.3309
G01 X83.4819 Y72.6291
G01 X82.4388 Y71.6663
G01 X82.0448 Y71.1345
G01 X81.8783 Y70.5249
G01 X82.0220 Y69.8962
G01 X82.1980 Y69.5668
G01 X82.5597 Y69.1776
G01 X83.7921 Y68.1944
G01 X84.4687 Y67.9333
G01 X85.4376 Y67.8231
G01 X85.8460 Y67.6950
G01 X87.7334 Y66.6890
G01 X87.2136 Y67.4590
G01 X87.0352 Y67.7848
G01 X86.8711 Y68.6591
G01 X86.9825 Y69.3716
G01 X87.1765 Y69.7141
G01 X87.6448 Y70.1405
G01 X87.8771 Y70.4818
G01 X88.0113 Y70.9273
G00 Z2.0000


;No. 9: Engraving 44
G00 X87.7322 Y66.6890 Z2.0000
G00 Z0.5000
G01 Z-2.0000 F180
G01 X88.0508 Y66.4375 F1200
G01 X88.3693 Y66.5057
G01 X88.6783 Y66.5572
G01 X88.9154 Y66.5261
G01 X89.5849 Y66.4028
G01 X89.7861 Y66.2171
G00 Z2.0000


;No. 10: Engraving 45
G00 X87.7322 Y66.6890 Z2.0000
G00 Z0.5000
G01 Z-2.0000 F180
G01 X87.8496 Y66.1944 F1200
G01 X87.7526 Y65.9453
G01 X87.4627 Y65.8626
G01 X87.2005 Y65.4818
G01 X87.4364 Y65.0962
G01 X87.8951 Y64.2303
G01 X88.3813 Y63.0231
G01 X89.0999 Y61.7788
G01 X89.1657 Y61.3524
G01 X89.0256 Y61.0710
G01 X88.7478 Y60.9608
G01 X88.1178 Y61.1812
G01 X87.5095 Y61.5776
G01 X86.9071 Y61.7608
G01 X86.6196 Y61.6267
G01 X86.4759 Y61.2722
G01 X86.5274 Y60.8578
G01 X86.9861 Y59.4123
G01 X86.9538 Y58.7105
G01 X86.7130 Y57.4362
G01 X86.7729 Y57.0207
G00 Z2.0000


;No. 11: Engraving 46
G00 X87.7322 Y66.6890 Z2.0000
G00 Z0.5000
G01 Z-2.0000 F180
G01 X88.3610 Y66.1932 F1200
G01 X89.5825 Y64.1333
G01 X89.8089 Y63.3405
G01 X90.8017 Y62.1812
G01 X91.2879 Y60.6566
G01 X91.5801 Y60.2782
G01 X93.6101 Y59.1560
G01 X95.1119 Y59.0279
G01 X95.9837 Y59.2470
G01 X96.1430 Y58.9141
G01 X95.9358 Y58.1668
G01 X95.6975 Y57.8650
G01 X95.5861 Y57.4051
G01 X95.9203
G01 X96.5814 Y57.6374
G01 X97.2353 Y57.7045
G01 X98.0556 Y58.0638
G01 X98.4317 Y58.0578
G01 X98.9023 Y58.1823
G01 X99.1670 Y58.2470
G01 X99.4233 Y58.1189
G01 X99.2041 Y57.7261
G01 X98.9323 Y57.4422
G01 X98.8436 Y56.3081
G01 X98.9921 Y55.8195
G01 X99.3634 Y55.2338
G01 X100.0437 Y53.9177
G01 X100.1263 Y53.5859
G01 X99.9754 Y53.2961
G01 X99.1730 Y53.2542
G01 X97.9490 Y52.9835
G01 X97.2508 Y52.8949
G01 X96.7538 Y52.5632
G01 X96.6424 Y51.9404
G01 X97.6664 Y51.4566
G01 X98.5155 Y51.5320
G01 X98.8712 Y51.4470
G01 X100.7263 Y50.2518
G01 X102.0101 Y48.8673
G01 X102.8029 Y48.2997
G01 X103.3814 Y47.1895
G01 X104.0772 Y46.1224
G01 X104.5311 Y45.6038
G01 X105.3287 Y45.0302
G01 X105.7000 Y44.8960
G01 X106.2521 Y45.0913
G01 X107.2437 Y46.0314
G01 X107.6473 Y46.7080
G01 X107.7215 Y47.1715
G01 X107.6844 Y48.1895
G01 X107.9479 Y48.9895
G01 X108.8377 Y50.3979
G01 X109.2138 Y50.6542
G01 X109.5192 Y50.7452
G01 X110.0641 Y51.0003
G01 X110.3683 Y50.9691
G01 X110.5671 Y50.4554
G01 X110.1060 Y49.6278
G01 X110.0617 Y48.9284
G01 X110.1407 Y48.1476
G01 X110.1491 Y47.6470
G01 X110.3156 Y47.3332
G01 X110.6257 Y47.3991
G01 X110.9563 Y47.7691
G01 X112.3790 Y48.7571
G01 X114.0617 Y49.2266
G01 X114.6413 Y49.2937
G01 X116.1946 Y49.0925
G01 X116.7144 Y49.2697
G01 X117.0425 Y49.6542
G01 X117.1539 Y50.0506
G01 X117.2282 Y51.6242
G01 X117.5204 Y51.9224
G01 X117.8773 Y51.8793
G01 X118.6378 Y51.4829
G01 X119.1288 Y51.0865
G01 X120.1623 Y49.7572
G01 X120.4821 Y49.5009
G01 X120.8809 Y49.3488
G01 X121.8354 Y49.3248
G00 Z2.0000


;No. 12: Engraving 48
G00 X122.8797 Y78.2795 Z2.0000
G00 Z0.5000
G01 Z-2.0000 F180
G01 X122.4546 Y77.1405 F1200
G01 X122.4102 Y76.1956
G01 X123.4186 Y74.5058
G01 X123.7108 Y74.2986
G01 X124.7073 Y73.9058
G01 X124.9947 Y73.6723
G01 X125.2019 Y73.3597
G01 X125.3121 Y73.0854
G01 X125.2857 Y72.6471
G01 X125.2198 Y72.5178
G01 X125.0306 Y72.4064
G01 X124.1959 Y72.1082
G01 X123.4162 Y71.9405
G01 X122.8366 Y71.5070
G01 X122.7013 Y71.4890
G01 X122.6498 Y71.6339
G01 X122.6761 Y72.0651
G01 X122.6210 Y72.4998
G01 X122.5049 Y72.5896
G01 X122.3779 Y72.5261
G01 X122.2162 Y72.3058
G01 X122.0641 Y71.9297
G01 X121.9216 Y71.4962
G01 X121.5851 Y70.3357
G01 X121.3264 Y69.1165
G01 X121.0713 Y68.1153
G01 X120.7791 Y65.9381
G01 X120.5096 Y64.4926
G01 X120.4450 Y63.7979
G01 Y63.1812
G01 X120.5336 Y62.8279
G01 X120.9743 Y61.8578
G01 X121.0474 Y61.1812
G01 X120.9875 Y60.8878
G01 X120.7468 Y60.6195
G01 X119.3048 Y59.8638
G01 X117.4282 Y59.0650
G01 X116.3288 Y58.7225
G01 X115.6282 Y58.6374
G01 X115.2857 Y58.5524
G01 X115.0210 Y58.3261
G01 X114.8868 Y57.8806
G01 X114.9240 Y57.4602
G01 X115.0581 Y56.9536
G01 X115.3970 Y56.4781
G01 X115.9623 Y55.9656
G01 X116.8809 Y55.2650
G01 X117.5946 Y54.8434
G01 X120.0414 Y53.8494
G01 X120.3803 Y53.5751
G01 X120.6486 Y53.2829
G01 X120.9408 Y52.8614
G01 X121.1312 Y52.4170
G01 X121.4881 Y51.2637
G01 X121.7336 Y50.2937
G01 X121.8354 Y49.3248
G01 X121.8222 Y48.9033
G01 X121.6414 Y48.5380
G01 X121.2102 Y47.9212
G01 X120.0557 Y46.5859
G01 X119.9216 Y46.2086
G01 X119.8785 Y46.0002
G01 X119.9156 Y45.8158
G01 X120.0941 Y45.5356
G01 X120.1959 Y45.4338
G01 X120.6006 Y45.1931
G01 X121.7228 Y44.7835
G01 X122.3025 Y44.5775
G01 X122.9552 Y44.2194
G01 X123.5192 Y43.8709
G01 X124.1576 Y43.3966
G01 X124.5480 Y43.0050
G01 X125.1971 Y42.2936
G01 X125.6198 Y41.8397
G01 X126.4390 Y41.0900
G01 X127.1300 Y40.2960
G01 X127.4630 Y39.7427
G01 X127.6678 Y39.2242
G01 X127.8570 Y38.8349
G01 X128.1133 Y38.3439
G01 X128.4187 Y37.9116
G00 Z2.0000


;No. 13: Engraving 3
G00 X85.3825 Y91.8173 Z2.0000
G00 Z0.5000
G01 Z-2.0000 F180
G01 X87.0448 Y95.3754 F1200
G01 X88.7071 Y96.9790
G01 X91.1562 Y97.7670
G01 X94.2772 Y98.9910
G01 X97.0173 Y100.8868
G01 X98.6796 Y102.2580
G01 X99.5550 Y103.1898
G01 X100.7802 Y103.6568
G01 X102.6748 Y104.5898
G01 X105.2988 Y105.2904
G01 X106.2916 Y104.8233
G01 X107.2533 Y103.2197
G01 X107.6030 Y100.9455
G01 X107.9527 Y98.9622
G01 X108.7982 Y96.4844
G01 X111.0437 Y93.8005
G01 X112.9982 Y92.5179
G01 X114.8928 Y91.9921
G01 X116.6138 Y89.9801
G01 X118.7432 Y88.4939
G01 X120.8713 Y86.2484
G01 X122.9120 Y84.4975
G01 X123.1671 Y85.4484
G01 X124.4701 Y87.6041
G01 X125.8007 Y89.8388
G01 X126.6785 Y92.4724
G01 X126.1731 Y95.1861
G01 X125.6222 Y98.5191
G01 X124.8893 Y100.2317
G01 X123.5348 Y103.9934
G01 X122.5743 Y106.3826
G01 X121.4653 Y108.1694
G01 X120.2989 Y110.9910
G01 X119.8653 Y113.1934
G01 X119.5276 Y114.2844
G01 X118.7743 Y116.0521
G01 X118.4366 Y118.2162
G00 Z2.0000


;No. 14: Engraving 58
G00 X108.5515 Y136.6606 Z2.0000
G00 Z0.5000
G01 Z-2.0000 F180
G01 X110.0210 Y136.1373 F1200
G01 X111.1587 Y135.7923
G01 X112.2832 Y135.5888
G01 X113.7407 Y135.2810
G01 X115.1467 Y134.7444
G01 X116.7443 Y134.1181
G01 X118.1252 Y133.5432
G01 X119.4797 Y132.8905
G01 X120.1252 Y132.7444
G01 X120.9815 Y132.5863
G01 X121.8857 Y132.7528
G00 Z2.0000


;No. 15: Engraving 59
G00 X115.1048 Y141.4475 Z2.0000
G00 Z0.5000
G01 Z-2.0000 F180
G01 X115.3096 Y142.0091 F1200
G01 X115.9587 Y143.0762
G01 X116.0833 Y143.5397
G01 Y144.3026
G01 X116.2509 Y144.8882
G01 X116.9372 Y145.9313
G01 X117.9192 Y147.0966
G01 X120.2605 Y149.6463
G01 X120.5336 Y149.9876
G01 X120.6821 Y150.3721
G01 X120.6030 Y150.9888
G01 X120.2785 Y152.0811
G01 X120.3396 Y153.6547
G01 X120.1348 Y154.9901
G01 X119.8845 Y155.6248
G01 X119.1803 Y156.5098
G01 X118.8186 Y157.2535
G01 X118.7911 Y157.6200
G01 X118.9479 Y157.9673
G01 X119.2366 Y158.1877
G01 X121.1180 Y158.7122
G01 X122.4809 Y159.4440
G01 X122.7959 Y159.4811
G01 X123.4821 Y159.3458
G01 X124.6366 Y158.8212
G01 X124.8306 Y158.4128
G01 X124.6270 Y158.0476
G01 X123.6857 Y157.6200
G01 X123.3611 Y157.3577
G01 X123.3432 Y156.9362
G01 X123.6162 Y156.6619
G01 X125.8366 Y155.1314
G01 X127.2510 Y153.9230
G01 X127.8486 Y153.7517
G01 X129.8043 Y154.0811
G01 X130.2965 Y153.9409
G01 X130.5564 Y153.6966
G01 X130.7648 Y153.3254
G01 X131.1636 Y152.0260
G01 X131.0007 Y149.6643
G01 X130.8845 Y148.8164
G01 X130.7013 Y148.2930
G01 X130.3288 Y147.7984
G01 X129.9720 Y147.0667
G01 X129.8654 Y145.7301
G01 X128.9708 Y143.9493
G01 X128.7899 Y143.1493
G01 X128.8450 Y142.7349
G01 X129.1420 Y142.3193
G01 X130.6953 Y141.2463
G01 X132.3360 Y140.6175
G01 X132.7995 Y140.3552
G01 X133.1049 Y140.0570
G01 X133.9265 Y138.9409
G01 X134.4965 Y137.7636
G01 X134.9265 Y137.3301
G01 X135.3265 Y137.2319
G01 X136.6510 Y137.2810
G01 X137.7732 Y137.6534
G01 X138.3576 Y137.7325
G01 X139.4702 Y137.5804
G01 X140.2954 Y137.0858
G01 X140.9349 Y136.3480
G01 X141.3409 Y135.7181
G01 X141.3696 Y135.8283
G01 X142.6259 Y136.1768
G01 X143.7062 Y136.3109
G01 X144.1565 Y136.5373
G01 X144.6798 Y137.1349
G01 X145.0415 Y137.3480
G01 X146.6092 Y137.9397
G01 X147.7445 Y138.4774
G01 X148.1661 Y138.5684
G01 X148.6619 Y138.4343
G01 X149.0056 Y138.1049
G01 X149.4547 Y137.3720
G01 X149.8391 Y137.0127
G01 X150.4236 Y136.7325
G01 X150.9793 Y136.6798
G00 Z2.0000


;No. 16: Engraving 62
G00 X141.3696 Y135.8283 Z2.0000
G00 Z0.5000
G01 Z-2.0000 F180
G01 X141.0367 Y134.5720 F1200
G01 X140.9996 Y133.8654
G01 X141.2702 Y131.3001
G01 X141.5193 Y130.4630
G01 Y130.1013
G01 X141.3517 Y128.3384
G01 X141.5421 Y127.3252
G01 X141.8343 Y126.6486
G01 X142.1541 Y126.3923
G01 X143.4283 Y126.1109
G01 X145.6259 Y126.0749
G01 X146.0619 Y125.9168
G01 X146.3960 Y125.5192
G01 X147.0355 Y123.2258
G01 X148.2080 Y121.7683
G01 X148.3984 Y121.3288
G01 X148.4487 Y120.8042
G01 X148.2224 Y119.7432
G01 X148.2547 Y119.2617
G01 X148.8152 Y116.9551
G01 X149.4966 Y115.9120
G01 X149.6679 Y115.4246
G01 X149.6499 Y114.8198
G01 X149.7733 Y114.7120
G00 Z2.0000


;No. 17: Engraving 63
G00 X141.2702 Y131.3001 Z2.0000
G00 Z0.5000
G01 Z-2.0000 F180
G01 X141.0163 Y130.3121 F1200
G01 X140.0523 Y127.5839
G01 X139.6666 Y127.5648
G01 X139.3588 Y127.6797
G01 X139.2546 Y127.7695
G01 X139.4151 Y128.3360
G01 X139.3097 Y128.8953
G01 X139.3193 Y129.4414
G01 X139.1972 Y129.4977
G01 X139.0906 Y129.4187
G01 X138.8798 Y128.2127
G01 X138.4822 Y127.7648
G01 X137.6690 Y127.2438
G01 X136.9229 Y126.3492
G01 X136.4762 Y125.6270
G01 X136.2271 Y124.5097
G01 X135.2953 Y124.5671
G01 X134.6127 Y124.7899
G01 X134.6498 Y124.3623
G01 X135.3061 Y123.9216
G01 X135.8175 Y123.4486
G01 X135.8690 Y123.3228
G01 X135.7253 Y123.0031
G01 X136.3876 Y122.5108
G01 X136.3756 Y121.7240
G01 X136.4007 Y121.1515
G01 X136.6750 Y120.0821
G01 X136.9229 Y119.4114
G01 X137.5696 Y118.5408
G01 X137.9001 Y118.1432
G00 Z2.0000


;No. 18: Engraving 57
G00 X91.6867 Y153.6954 Z2.0000
G00 Z0.5000
G01 Z-2.0000 F180
G01 X93.2688 Y152.0248 F1200
G01 X94.8209 Y149.4882
G01 X96.7598 Y147.3385
G01 X98.2820 Y144.8020
G01 X99.2377 Y144.1744
G01 X99.9059 Y144.0259
G01 X101.3239 Y143.0547
G01 X102.5179 Y140.9361
G01 X104.4580 Y139.2798
G01 X105.0101 Y137.9061
G01 X105.7563 Y136.5480
G01 X106.7862 Y135.4295
G01 X108.6665 Y133.6378
G01 X109.7707 Y132.0702
G01 X111.0988 Y131.2055
G00 Z2.0000


;No. 19: Engraving 60
G00 X94.5083 Y173.1734 Z2.0000
G00 Z0.5000
G01 Z-2.0000 F180
G01 X93.9610 Y173.8440 F1200
G01 X93.2400 Y174.4165
G01 X92.5430 Y174.5411
G01 X91.2005 Y174.0189
G01 X89.6592 Y174.0441
G01 X88.0184 Y174.3914
G01 X86.6256 Y175.0381
G01 X85.9298 Y174.8884
G01 X85.0843 Y174.9638
G01 X83.8651 Y176.1566
G01 X83.1190 Y177.7734
G01 X82.0004 Y179.1662
G01 X80.7070 Y179.8381
G01 X80.0112 Y179.8620
G01 X76.9525 Y180.7579
G00 Z2.0000


;No. 20: Engraving 54
G00 X63.6602 Y171.1027 Z2.0000
G00 Z0.5000
G01 Z-2.0000 F180
G01 X61.9081 Y170.9626 F1200
G01 X59.5943 Y170.3877
G01 X58.8434 Y170.1327
G01 X58.2925 Y169.8093
G01 X57.6554 Y169.4812
G01 X57.1452 Y169.1207
G01 X56.4841 Y168.3626
G01 X55.8865 Y167.6680
G01 X55.2650 Y166.5817
G01 X54.7464 Y165.5997
G01 X54.4470 Y164.1721
G01 X54.3967 Y163.5757
G01 X54.3847 Y162.7422
G01 X54.5284 Y162.0236
G01 X54.6769 Y161.1949
G01 X54.4973 Y160.3925
G01 X53.9991 Y159.2727
G01 X53.6518 Y158.3781
G01 X53.0123 Y157.4727
G01 X52.2147 Y156.6739
G01 X51.5895 Y156.1074
G01 X51.3069 Y155.6188
G01 X51.1033 Y155.2032
G01 X51.0422 Y154.6607
G01 X51.1524 Y153.7409
G01 X51.3140 Y153.1433
G01 X51.5009 Y152.6835
G01 X52.1596 Y151.4523
G01 X52.8434 Y149.9481
G01 X53.4278 Y148.4307
G01 X53.8566 Y146.9313
G01 X53.9212 Y146.0343
G01 X53.8626 Y144.5517
G01 X54.0242 Y143.4571
G01 X54.3596 Y142.4630
G01 X54.9572 Y141.9038
G01 X55.6159 Y141.4175
G01 X56.4111 Y140.9720
G01 X56.7596 Y140.6235
G01 X56.9464 Y140.2630
G01 X56.9344 Y139.6666
G01 X56.8470 Y139.3433
G01 X56.7093 Y138.9948
G01 X56.6015 Y138.5049
G01 X56.3847 Y137.9504
G01 X56.2039 Y137.3013
G01 X55.9752 Y136.8918
G01 X55.2769 Y136.4582
G01 X55.4219 Y136.0367
G01 X55.7225 Y135.8211
G01 X56.2039 Y135.7361
G01 X56.3356 Y135.5432
G01 X56.0470 Y135.2307
G01 X55.9260 Y134.7612
G01 X55.6494 Y134.2678
G01 X55.6254 Y134.2558
G01 X55.2518 Y133.8103
G01 X54.1332 Y133.1241
G01 X53.6278 Y132.7145
G01 X53.6039 Y132.4139
G01 X54.1572 Y131.9684
G01 X54.6266 Y131.3911
G01 X54.9512 Y130.4043
G01 X55.0841 Y130.0426
G01 X55.2039 Y129.6690
G01 X55.2877 Y129.3803
G01 X55.7344 Y129.0211
G00 Z2.0000


;No. 21: Engraving 56
G00 X60.2291 Y156.6008 Z2.0000
G00 Z0.5000
G01 Z-2.0000 F180
G01 X60.6506 Y156.7996 F1200
G01 X60.7009 Y157.0236
G01 X60.4027 Y157.2092
G01 X59.6315 Y157.2715
G01 X59.2458 Y157.2092
G01 X58.7859 Y156.9362
G01 X58.4506 Y156.6619
G01 X58.0650 Y156.0907
G01 X57.6554 Y155.4571
G01 X57.3560 Y155.0344
G01 X57.1201 Y154.7733
G01 X56.9081 Y154.6727
G01 X56.5608 Y154.7481
G01 X56.1033 Y155.0835
G00 Z2.0000


;No. 22: Engraving 55
G00 X53.6518 Y158.3781 Z2.0000
G00 Z0.5000
G01 Z-2.0000 F180
G01 X54.1859 Y156.7996 F1200
G01 X54.9692 Y156.0535
G01 X56.0015 Y155.5062
G01 X56.2003 Y154.6859
G01 X55.1428 Y153.2918
G01 X54.9201 Y152.7457
G01 X54.6961 Y152.2236
G01 X54.7201 Y151.5888
G00 Z2.0000


;No. 23: Engraving 12
G00 X56.7584 Y191.0154 Z2.0000
G00 Z0.5000
G01 Z-2.0000 F180
G01 X56.7835 Y190.4932 F1200
G01 X56.6590 Y190.1447
G01 X56.3356 Y189.6729
G01 X55.8877 Y189.2992
G01 X55.4805 Y189.1148
G01 X55.0422 Y189.0872
G01 X54.8314 Y189.2118
G01 X54.6326 Y189.4238
G01 X54.4973 Y189.7244
G01 X54.4230 Y189.9855
G01 X54.2338 Y190.2322
G01 X54.0230 Y190.3435
G01 X52.9284 Y190.4561
G01 X52.2697 Y190.6046
G01 X51.7476 Y190.6549
G01 X50.8027 Y190.6920
G01 X50.2075 Y190.7316
G01 X49.8697 Y190.8034
G01 X49.6709 Y190.9399
G01 X49.5092 Y191.1519
G01 X49.4122 Y191.4525
G01 X49.3595 Y191.7855
G01 X49.2613 Y192.1459
G01 X49.1260 Y192.4465
G01 X48.8757 Y192.6190
G01 X48.1440 Y192.8693
G01 X46.9356 Y193.1292
G01 X45.8937 Y193.2549
G01 X44.6996 Y193.2801
G01 X44.0410 Y193.2178
G01 X43.5571 Y193.0933
G01 X43.2302 Y192.8921
G01 X43.0841 Y192.6082
G01 X43.0685 Y192.2825
G01 X43.1068 Y191.8106
G01 X43.2433 Y191.3388
G01 X43.3200 Y190.9926
G01 X43.3296 Y190.6046
G01 Y190.2190
G01 X43.3427 Y189.7711
G01 X43.3823 Y189.3639
G01 X43.5164 Y188.8884
G01 X43.7308 Y188.5304
G01 X43.9547 Y188.2322
G01 X44.1535 Y187.9220
G01 X44.2769 Y187.6477
G01 X44.3871 Y187.2729
G01 X44.6134 Y186.4549
G01 X44.8996 Y185.5842
G01 X45.1703 Y184.9603
G01 X45.5056 Y184.5375
G01 X45.9559 Y184.2046
G01 X46.4505 Y183.9902
G01 X46.8733 Y183.8776
G01 X47.2470 Y183.8908
G01 X47.8841 Y184.0920
G01 X48.3428 Y184.3160
G01 X48.7883 Y184.4992
G01 X49.0889 Y184.5770
G01 X49.3476 Y184.5746
G01 X49.6458 Y184.5627
G01 X49.8087 Y184.4633
G01 X49.8601 Y184.2657
G01 X49.8350 Y184.0046
G01 X49.7979 Y183.7064
G01 X49.7703 Y183.3303
G01 Y182.8956
G01 X49.8098 Y182.4884
G01 X49.9069 Y181.9639
G01 X50.0841 Y181.1698
G01 X50.3679 Y178.5938
G01 X50.5188 Y177.9998
G01 X50.6410 Y177.6740
G01 X50.8027 Y177.4369
G01 X51.0661 Y177.2656
G01 X51.6877 Y177.0177
G01 X52.4961 Y176.4453
G01 X52.8290 Y176.3554
G00 Z2.0000


;No. 24: Engraving 11
G00 X46.0961 Y210.6227 Z2.0000
G00 Z0.5000
G01 Z-2.0000 F180
G01 X45.5188 Y210.4850 F1200
G01 X44.9607 Y210.4754
G01 X44.4134 Y210.5999
G01 X43.5811 Y210.8610
G01 X42.8853 Y211.1724
G01 X42.5344 Y211.4179
G01 X42.2481 Y211.7161
G01 X42.0122 Y211.9401
G01 X41.7020 Y212.1640
G01 X41.3032 Y212.3508
G01 X41.0170 Y212.5748
G01 X40.7212 Y212.7880
G01 X40.4972 Y212.9125
G01 X39.7523 Y212.9377
G01 X38.7319 Y213.1988
G01 X38.3942 Y213.3700
G01 X38.1212 Y213.5568
G01 X37.8349 Y213.6059
G01 X37.6014 Y213.5221
G01 X37.2876 Y213.3952
G01 X37.0134 Y213.3449
G01 X36.6685 Y213.2479
G01 X36.4050 Y213.1209
G01 X36.1463 Y212.9125
G01 X35.7355 Y212.4155
G01 X35.4601 Y212.1137
G01 X34.8253 Y211.4550
G00 Z2.0000


;No. 25: Engraving 10
G00 X46.0649 Y255.7559 Z2.0000
G00 Z0.5000
G01 Z-2.0000 F180
G01 X45.6422 Y255.7930 F1200
G01 X45.4314 Y255.8792
G01 X45.1978 Y256.0565
G01 X44.8960 Y256.3523
G01 X44.6134 Y256.5535
G01 X44.1751 Y256.7259
G01 X43.4302 Y256.9499
G01 X42.7080 Y257.0732
G01 X41.6397 Y257.2098
G01 X40.2469 Y257.5331
G01 X39.8361 Y257.5211
G01 X39.4661 Y257.4493
G01 X39.1906 Y257.2852
G01 X39.0278 Y257.0481
G01 X38.9655 Y256.7128
G01 X39.0433 Y256.4289
G01 X39.2421 Y256.0074
G01 X39.4757 Y255.5439
G01 X39.6397 Y254.9870
G01 X39.7619 Y254.1882
G01 X39.7739 Y253.6912
G01 X39.6769 Y253.0852
G01 X39.4038 Y252.4636
G01 X39.1284 Y252.0253
G01 X38.9284 Y251.5031
G01 X38.8290 Y250.8564
G01 X38.8661 Y250.4840
G01 X38.9787 Y249.9738
G01 X39.1152 Y249.4636
G01 X39.1523 Y248.8804
G01 X39.1032 Y248.3822
G01 X38.9296 Y247.8001
G01 X38.8313 Y248.4097
G01 X38.7080 Y248.8073
G01 X38.5703 Y249.1439
G01 X38.3571 Y249.4013
G01 X38.1224 Y249.5283
G01 X37.7846 Y249.6133
G01 X37.4146 Y249.6277
G01 X36.9176 Y249.5666
G01 X36.2433 Y249.5510
G01 X35.3008 Y249.6409
G01 X33.8086 Y249.6780
G01 X32.4660 Y249.7522
G01 X32.0181 Y249.8025
G01 X31.7822 Y249.9139
G01 X31.7056 Y250.1487
G01 X31.7798 Y250.4097
G01 X31.9810 Y250.6600
G01 X32.2301 Y250.9211
G01 X32.4505 Y251.2421
G01 X32.5127 Y251.5906
G01 X32.5259 Y251.9630
G01 X32.3882 Y252.3367
G01 X32.2026 Y252.6481
G01 X31.9535 Y252.8708
G01 X31.5211 Y253.0600
G01 X30.2529 Y253.3582
G01 X29.0469 Y253.4828
G01 X28.5367 Y253.4325
G01 X27.9750 Y253.2565
G01 X26.9954 Y252.8121
G01 X26.6971 Y252.7870
G01 X26.4361 Y252.8493
G01 X26.2492 Y252.9726
G01 X26.1103 Y253.1690
G01 X26.0373 Y253.4828
G01 X26.0971 Y253.8409
G01 X26.3211 Y254.2265
G01 X27.8037 Y255.5463
G01 X28.2013 Y255.9439
G01 X28.4469 Y256.3152
G01 X28.5738 Y256.6661
G01 X28.6457 Y257.0110
G01 X28.6217 Y257.3092
G01 X28.5091 Y257.6325
G01 X28.3726 Y257.8445
G01 X28.1115 Y257.9559
G01 X27.2169 Y258.2421
G01 X26.7594 Y258.3188
G01 X25.9726 Y258.2301
G00 Z2.0000


;No. 26: Engraving 72
G00 X45.4961 Y316.7538 Z2.0000
G00 Z0.5000
G01 Z-2.0000 F180
G01 X44.4110 Y316.8951 F1200
G01 X43.0194 Y315.9023
G01 X41.6553 Y315.2352
G01 X40.1499 Y313.6532
G01 X40.3296 Y312.5310
G01 X40.4326 Y311.4244
G01 X39.7775 Y311.2903
G01 X38.7475 Y311.8831
G01 X36.6182 Y311.3430
G01 X35.6373 Y309.3729
G01 X35.1607 Y308.0436
G01 X34.0672
G01 X33.0720 Y309.2376
G01 X31.5810 Y310.8280
G01 X29.6900 Y311.2268
G01 X26.7055 Y311.7238
G01 X25.0157 Y311.5238
G01 X23.0265 Y311.1262
G01 X22.4289 Y309.5358
G01 X21.4348 Y308.6400
G01 X20.1414 Y307.6460
G01 X18.7486 Y305.7549
G01 X17.9534 Y304.3633
G01 X17.3558 Y302.5729
G01 X16.4612 Y300.1848
G01 Y298.7932
G01 X17.6552 Y296.9034
G01 Y294.9130
G01 X18.1522 Y293.1237
G01 X19.4444 Y291.6315
G01 X20.0420 Y290.0399
G01 X21.5342 Y288.3489
G01 X22.2301 Y288.2495
G01 X23.3247 Y286.1608
G01 X23.9211 Y283.9716
G01 X24.5187 Y283.0770
G01 X24.9163 Y280.5907
G01 X25.1151 Y278.2039
G01 X24.6169 Y276.0147
G01 X25.6121 Y275.3188
G01 X26.9055 Y274.6230
G01 X28.4972 Y274.8218
G01 X29.1930 Y276.2147
G01 X30.5858 Y276.8111
G01 X32.1762
G01 X34.7631 Y276.9105
G01 X35.8577 Y276.2147
G01 X37.5487 Y276.3141
G01 X38.8409 Y275.9153
G01 X40.1343 Y274.3236
G01 X41.4278 Y272.6338
G01 X43.3176 Y271.5392
G01 X45.7044 Y270.3452
G01 X48.0913 Y268.5547
G01 X49.6829 Y267.6601
G01 X52.7668 Y264.4769
G01 X54.4578 Y264.1787
G01 X54.7560 Y263.6817
G01 X56.3476
G01 X57.6410 Y262.4876
G01 X59.3321 Y261.8912
G01 X61.4207 Y262.0900
G01 X63.2099 Y261.5930
G01 X64.5033 Y260.4984
G01 X67.3884 Y259.0062
G01 X69.1788 Y258.1104
G01 X69.6758 Y256.7175
G01 X70.7704 Y255.4253
G01 X72.3621 Y254.9283
G01 X76.5393 Y253.9331
G01 X77.9322 Y253.0385
G01 X79.5238 Y250.9499
G01 X80.5178 Y248.3630
G01 X81.7118 Y246.9702
G01 X82.9046 Y245.0804
G01 X83.5022 Y243.4887
G01 X83.7010 Y242.5941
G01 X84.2975 Y241.9965
G01 X84.8939 Y242.4947
G01 X85.3921 Y243.8875
G01 X86.3861 Y244.9810
G01 X87.4807 Y247.2696
G01 X87.9777 Y246.2744
G01 Y243.6875
G01 X89.5693 Y242.3953
G01 X90.8628 Y240.7043
G01 X91.3598 Y241.7989
G01 X93.6628 Y242.3019
G00 Z2.0000


;No. 27: Engraving 74
G00 X96.1382 Y275.7608 Z2.0000
G00 Z0.5000
G01 Z-2.0000 F180
G01 X96.1346 Y275.2889 F1200
G01 X96.6712 Y274.2278
G01 X96.8436 Y273.5979
G01 X97.1430 Y273.3320
G01 X97.5155 Y272.6518
G01 X98.5826 Y271.7667
G00 Z2.0000


;No. 28: Engraving 71
G00 X128.5863 Y242.3738 Z2.0000
G00 Z0.5000
G01 Z-2.0000 F180
G01 X129.4019 Y241.6456 F1200
G01 X129.8833 Y240.9989
G01 X130.8438 Y240.0468
G01 X131.0654 Y239.6815
G01 X131.3432 Y238.8636
G01 X131.9324 Y237.8875
G01 X132.5444 Y237.2707
G01 X133.0175 Y236.9594
G01 X133.6199 Y236.7522
G01 X136.3552 Y236.8624
G01 X137.6247 Y236.7282
G01 X138.4966 Y236.4049
G00 Z2.0000


;No. 29: Engraving 70
G00 X163.5985 Y248.3690 Z2.0000
G00 Z0.5000
G01 Z-2.0000 F180
G01 X166.0608 Y244.8133 F1200
G00 Z2.0000


;No. 30: Engraving 69
G00 X165.5997 Y248.7019 Z2.0000
G00 Z0.5000
G01 Z-2.0000 F180
G01 X163.5985 Y248.3690 F1200
G01 X162.4775 Y248.5906
G01 X160.7110 Y248.3882
G01 X159.9439 Y248.0007
G01 X159.5314 Y248.4313
G00 Z2.0000


;No. 31: Engraving 8
G00 X169.2692 Y253.4421 Z2.0000
G00 Z0.5000
G01 Z-2.0000 F180
G01 X170.2632 Y251.9499 F1200
G01 X169.9398 Y253.9894
G01 X170.1638 Y255.2828
G01 X171.2081 Y257.8433
G01 X171.7554 Y258.8134
G01 X172.2524 Y259.8325
G01 X173.3722 Y261.1032
G01 X174.2991 Y261.6840
G01 X175.5962 Y261.6062
G01 X176.1758 Y262.0206
G01 X177.0764 Y263.5882
G01 X177.4836 Y264.1463
G01 X178.2572 Y264.3164
G01 X178.7483 Y264.4158
G01 X178.7770 Y264.8038
G01 X177.9087 Y265.8589
G01 X177.5315 Y266.1164
G01 X177.2489 Y266.6170
G01 X177.3039 Y267.3104
G01 X177.7722 Y268.2122
G01 X178.3902 Y269.2050
G01 X178.4549 Y270.1021
G01 X178.1435 Y273.9200
G01 X178.1962 Y277.2398
G01 X178.0465 Y278.9548
G01 X177.3255 Y280.9692
G01 X177.3590 Y283.2063
G01 X177.4465 Y283.7153
G01 X177.2620 Y283.8746
G01 X176.4225 Y283.0183
G01 X175.6824 Y281.9225
G01 X175.2117 Y281.8650
G01 X173.9614 Y283.6614
G01 X173.5291 Y284.0363
G01 X172.9985 Y284.2267
G01 X172.6261 Y284.7740
G01 X172.5267 Y285.0722
G01 X172.7494 Y285.6938
G01 X173.4716 Y286.4650
G01 X173.5458 Y286.9129
G01 X173.1722 Y288.9022
G01 X172.7494 Y289.5237
G01 X172.5267 Y290.7920
G01 X171.6069 Y291.4878
G01 X170.1590 Y291.0866
G01 X169.0692 Y291.3884
G01 X168.8320 Y291.8567
G01 X169.4919 Y292.6818
G01 X170.1135 Y293.7764
G01 X170.5865 Y295.2435
G01 X170.3135 Y296.5118
G01 X170.1734 Y297.0064
G01 X170.4009 Y297.3860
G01 X170.7362 Y299.5453
G01 X170.5099 Y300.4878
G01 X170.0560 Y301.0831
G01 X169.8656 Y301.6088
G01 X169.6883 Y303.8711
G01 X168.8716 Y305.5130
G01 X167.8512 Y308.4975
G01 X167.3781 Y310.2376
G01 X166.6165 Y311.9729
G01 X166.6572 Y312.9071
G01 X165.9614 Y315.1861
G01 X166.0356 Y318.0209
G01 X166.0859 Y318.3442
G01 X165.8871 Y318.4436
G01 X164.8177 Y317.3490
G01 X163.9218 Y316.2304
G01 X163.3015 Y315.7334
G01 X162.9530 Y315.8077
G01 X162.4799 Y316.9514
G01 X162.0572 Y317.3490
G01 X161.7841 Y318.6927
G01 X161.4104 Y319.2891
G01 X161.4356 Y319.8856
G01 X161.1122 Y320.4832
G01 X160.7637 Y320.6820
G01 X160.5877 Y321.2017
G01 X160.2667 Y321.4029
G01 Y321.7011
G01 X160.4907 Y322.0245
G01 X160.3170 Y322.4233
G01 X160.5398 Y323.1934
G01 X160.3015 Y324.0868
G01 X159.7817 Y324.4365
G01 X159.4955 Y324.8844
G01 X159.1015 Y325.1155
G01 X158.8248 Y325.5023
G01 X158.1625 Y325.9012
G01 X157.3170 Y325.7419
G01 X156.7098 Y326.5263
G01 X155.2044 Y327.0449
G01 X154.3350 Y327.7407
G01 X154.0990 Y328.2293
G01 X154.3984 Y329.6090
G01 X154.6930 Y329.9922
G01 X154.4823 Y330.7383
G00 Z2.0000


;No. 32: Engraving 26
G00 X148.6080 Y337.5479 Z2.0000
G00 Z0.5000
G01 Z-2.0000 F180
G01 X149.1565 Y337.5491 F1200
G01 X149.3002 Y337.5910
G01 X150.1493 Y336.9898
G01 X150.9182 Y336.0222
G01 X152.0236 Y335.3491
G01 X154.8308 Y334.0964
G01 X155.4919 Y334.3335
G01 X156.2392 Y335.1539
G01 X156.8356 Y335.5276
G01 X158.0032 Y335.7012
G01 X159.3949 Y335.7371
G01 X163.5242 Y335.9503
G01 X165.7123 Y336.2234
G00 Z2.0000


;No. 33: Engraving 13
G00 X146.7633 Y314.5749 Z2.0000
G00 Z0.5000
G01 Z-2.0000 F180
G01 X145.8499 Y314.8340 F1200
G01 X145.2726 Y315.4592
G01 X145.0643 Y317.0736
G01 X145.0044 Y317.6101
G01 X144.5996 Y317.9418
G01 X143.4978 Y317.9071
G01 X142.9493 Y318.1945
G01 X142.3157 Y319.4125
G01 X141.7984 Y319.4999
G01 X141.6463 Y319.9107
G01 X142.1325 Y320.2281
G01 X143.1086 Y320.3335
G01 X143.2618 Y320.5514
G01 X143.3325 Y321.5778
G01 X143.7553 Y322.6963
G01 X142.1349 Y326.3359
G01 X141.2906 Y327.1275
G01 X138.1181 Y328.4125
G01 X137.0618 Y328.8197
G01 X135.7025 Y329.4820
G01 X134.9217 Y329.9922
G01 X133.9253 Y330.6006
G01 X133.6091 Y330.7527
G01 X132.8319 Y330.8772
G01 X132.0019 Y330.6449
G01 X130.6390 Y329.9730
G01 X130.2211 Y329.8569
G01 X129.7492
G01 X129.1839 Y330.0401
G01 X127.9600 Y330.7611
G01 X125.8043 Y331.4748
G01 X124.7240 Y332.3599
G01 X123.7504 Y332.7503
G01 X123.2546 Y332.7623
G01 X122.8378 Y332.5311
G01 X121.8965 Y331.7072
G01 X121.2605 Y331.4078
G01 X118.5491 Y330.4676
G01 X117.4881 Y330.2485
G01 X114.3635 Y329.9191
G01 X113.5204 Y329.7167
G01 X112.9359 Y329.7108
G01 X110.7383 Y330.9682
G01 X109.0054 Y331.6641
G01 X105.3479 Y331.7251
G01 X106.3491 Y330.9742
G01 X108.1239 Y330.1994
G01 X108.7587 Y329.6497
G01 X109.2090 Y328.8078
G01 X109.5982 Y328.3072
G01 X110.2245 Y327.7215
G01 X111.9671 Y326.5682
G01 X113.9695 Y325.0485
G01 X115.7815 Y324.0784
G01 X116.1815 Y323.7119
G01 X117.2749 Y321.4963
G01 X117.5527 Y320.8005
G01 X117.6689 Y320.0197
G01 X117.5348 Y319.6472
G01 X117.1958 Y319.1646
G01 X116.8857 Y318.4197
G01 X116.8162 Y318.0053
G01 X116.9036 Y317.4436
G01 X117.2557 Y316.6448
G01 X117.3911 Y315.8640
G01 X117.3300 Y314.5574
G01 X117.4234 Y313.8975
G01 X117.6366 Y313.6173
G01 X120.0414 Y311.8663
G01 X120.7036 Y311.6807
G01 X121.6354 Y311.7801
G01 X122.2821 Y312.3526
G01 X122.8414 Y313.5586
G01 X123.2641 Y314.0185
G01 X124.5324 Y314.2915
G01 X125.2294 Y314.2795
G01 X125.5396 Y314.6400
G01 X125.8642 Y314.7909
G01 X127.0618 Y315.0173
G01 X128.5288 Y314.8244
G01 X128.7540 Y314.9322
G01 X128.3085 Y315.4903
G01 X127.6342 Y315.9526
G01 X127.2127 Y316.1047
G01 X126.7851 Y316.4257
G01 X125.3947 Y316.4867
G01 X124.3588 Y316.4544
G01 X124.2845 Y316.9766
G01 X124.8570 Y318.5430
G01 X125.4785 Y318.9418
G01 X126.1001 Y318.6927
G01 X126.6725 Y318.5933
G01 X127.0941 Y318.8424
G01 X127.2438 Y319.4388
G01 X127.4953 Y319.9969
G01 X128.1779 Y320.0496
G01 X129.2115 Y319.6820
G01 X129.9720 Y319.8317
G01 X130.7911 Y319.8556
G01 X131.6019 Y319.7071
G01 X131.7384 Y319.1969
G01 X132.3863 Y318.7742
G01 X133.5265 Y317.7430
G01 X133.1037 Y317.1215
G01 X133.0127 Y316.7778
G01 X133.6510 Y316.2496
G01 X134.0989 Y315.7526
G01 X135.2558 Y315.4508
G01 X135.8031 Y314.8724
G01 X136.0043 Y314.2256
G01 X136.6714 Y313.9765
G01 X137.6199 Y313.1023
G01 X138.2475 Y312.8771
G01 X138.2846 Y313.3214
G01 X138.4486 Y313.8771
G01 X138.2738 Y314.4232
G01 X138.4834 Y314.7885
G01 X138.7756 Y315.9263
G01 X139.1708 Y315.7765
G01 X140.3409 Y314.6472
G01 X141.1600 Y314.4484
G01 X141.5217 Y313.9526
G01 X141.4930 Y314.5406
G01 X141.7720 Y314.9825
G01 X142.1181 Y315.0041
G01 X142.4115 Y315.2161
G01 X142.0127 Y315.6400
G01 X142.1445 Y315.9274
G01 X143.6104 Y316.9837
G01 X144.4211 Y317.1825
G01 X145.0643 Y317.0736
G01 X145.6415 Y316.7849
G01 X146.2104 Y317.1227
G01 X147.3673 Y317.6328
G01 X148.4224 Y317.6700
G01 X150.1086 Y318.2460
G00 Z2.0000


;No. 34: Engraving 9
G00 X146.8511 Y314.4927 Z2.0000
G00 Z0.5000
G01 Z-2.0000 F180
G01 X147.8008 Y314.4065 F1200
G01 X149.0942 Y313.3430
G01 X149.6236 Y311.5310
G01 X148.5685 Y309.7142
G01 X148.0571 Y309.4915
G01 X147.3146 Y308.8412
G01 X147.4403 Y308.6675
G01 X148.2008 Y308.4939
G01 X150.7757 Y305.3861
G01 X152.6032 Y305.2819
G01 X153.3026 Y304.7394
G01 X153.5529 Y303.8723
G01 X153.3529 Y302.8364
G01 X152.8296 Y302.1417
G01 X151.3721 Y301.5932
G01 X150.6128 Y300.9154
G01 X150.0954 Y300.8124
G01 X149.6104 Y299.7429
G01 X149.7385 Y299.4567
G01 X151.1900 Y299.6902
G01 X151.7373 Y299.3705
G01 X151.5349 Y297.5633
G01 X152.7074 Y296.0387
G01 X153.3350 Y295.4531
G01 X154.1302 Y294.9908
G01 X154.4727 Y294.1249
G01 X154.5685 Y291.9920
G01 X155.5925 Y290.5525
G01 X156.4571 Y289.7189
G01 X157.0032 Y288.9572
G01 X156.9925 Y288.4016
G01 X157.2248 Y288.2135
G01 X158.1290 Y289.0016
G01 X158.3026 Y289.8219
G01 X158.7254 Y290.1201
G01 X159.5218 Y290.1453
G01 X160.2919 Y289.7980
G01 X160.9961 Y288.2027
G01 X161.2955 Y287.3596
G01 X161.2476 Y286.0051
G01 X160.5721 Y284.7572
G01 X160.5745 Y284.4255
G01 X161.4727 Y283.8255
G01 X162.3554 Y282.7812
G01 X162.8500 Y280.8794
G01 X162.7039 Y279.2039
G01 X161.9087 Y277.4889
G01 X158.3961 Y275.0206
G01 X157.6176 Y274.3296
G01 X156.6931 Y274.3895
G01 X156.4320 Y274.1847
G01 X156.6607 Y273.7835
G01 X156.5158 Y272.9835
G01 X157.1194 Y272.2769
G01 X158.1829 Y272.4098
G01 X158.9589 Y272.3607
G01 X159.9805 Y271.8769
G01 X160.3170 Y271.2721
G01 X160.0548 Y270.0506
G01 X160.7889 Y268.7104
G01 X160.7637 Y267.8649
G01 X160.8140 Y266.7212
G01 X161.2404 Y266.2960
G01 X161.7841 Y266.4062
G01 X162.0919 Y266.8673
G01 X162.3506 Y266.8541
G01 X163.7099 Y265.4374
G01 X164.0224 Y264.2098
G01 X163.9973 Y263.3643
G01 X163.2236 Y261.7343
G01 X162.9278 Y260.6541
G01 X162.9170 Y259.8768
G01 X163.1254 Y259.2445
G01 X163.0775 Y258.3655
G01 X162.6045 Y256.1523
G01 X161.9841 Y254.6696
G01 X160.7398 Y253.6660
G01 X160.1422 Y251.6517
G01 X160.4164 Y250.4337
G01 X159.9901 Y249.1187
G01 X159.5314 Y248.4313
G01 X158.9721 Y248.1941
G01 X157.7805 Y248.1199
G01 X156.0883 Y248.9498
G01 X155.1565 Y248.9678
G01 X154.5254 Y248.8528
G01 X153.5889 Y248.1199
G01 X152.6715 Y247.5343
G01 X151.9361 Y247.1259
G01 X152.2188 Y246.7115
G01 X153.6691 Y246.5798
G01 X154.4607 Y246.7678
G01 X155.1014 Y246.6361
G01 X155.6487 Y246.2396
G01 X155.2523 Y246.0516
G01 X154.4799 Y246.1271
G01 X153.3302 Y245.8816
G01 X152.4954 Y245.4408
G01 X151.4056 Y245.0265
G01 X149.8355 Y244.8432
G01 X149.4403 Y244.5690
G01 X149.2272 Y244.3187
G01 X148.0822 Y242.6277
G01 X147.8188 Y242.1570
G01 X147.7433 Y241.7606
G01 X147.9038 Y241.7893
G01 X148.3373 Y242.2037
G01 X148.7517 Y242.5139
G01 X148.8834 Y242.1762
G01 X148.6283 Y241.7139
G01 X148.1984 Y240.8648
G01 X147.5685 Y240.0348
G01 X146.9421 Y239.6324
G01 X146.4044 Y239.5163
G01 X144.7217 Y239.5773
G01 X143.8127 Y239.7426
G01 X143.2104 Y239.9737
G01 X142.6630 Y240.4252
G01 X141.8762 Y241.3773
G01 X141.5097 Y241.5426
G01 X141.0882 Y241.5115
G01 X139.0427 Y240.9378
G01 X138.2834 Y240.8947
G01 X132.9061 Y241.5666
G01 X132.1408 Y241.8468
G01 X130.5744 Y242.6217
G01 X130.0594 Y242.7690
G01 X129.5827
G01 X128.5863 Y242.3738
G01 X127.9552 Y242.6348
G01 X127.0558 Y243.4516
G01 X125.5683 Y244.4528
G01 X125.1132 Y244.6301
G01 X123.7743 Y244.8372
G01 X123.3061 Y245.0816
G01 X122.7408 Y245.6480
G01 X122.3372 Y245.9175
G01 X121.6737 Y246.1606
G01 X120.6126 Y246.3989
G01 X119.8342 Y246.7534
G01 X117.6174 Y248.5594
G01 X116.7000 Y248.8708
G01 X115.2449 Y249.0049
G01 X114.6186 Y249.1702
G01 X113.4413 Y249.6876
G01 X113.0210 Y249.6756
G01 X112.9635 Y250.6720
G01 X112.3982 Y250.3894
G01 X111.8988 Y250.2756
G01 X111.6533 Y250.7187
G01 X111.7671 Y251.1343
G01 X112.0784 Y251.5427
G01 X112.2964 Y251.9151
G01 X112.9826 Y252.6660
G01 X113.6509 Y253.8684
G01 X113.9335 Y254.0696
G01 X114.7252 Y254.2529
G01 X116.9228 Y255.1738
G01 X117.2893 Y255.3750
G01 X118.0414 Y255.5846
G01 X118.3132 Y255.8421
G01 X117.8414 Y256.1846
G01 X116.7563 Y256.1678
G01 X115.5551 Y256.2780
G01 X114.8713 Y256.2852
G01 X114.2569 Y256.4277
G01 X114.6282 Y256.6996
G01 X115.2545 Y256.9559
G01 X115.5922 Y257.2301
G01 X116.5982 Y257.7798
G01 X117.0234 Y258.0337
G01 X117.5575 Y258.1211
G01 X118.0653 Y257.9439
G01 X118.3024 Y257.8948
G01 X118.3360 Y258.1403
G01 X117.9420 Y258.5020
G01 X118.0162 Y258.7319
G01 X118.6881 Y258.5834
G01 X119.2881 Y258.5691
G01 X120.2114 Y258.6721
G01 X119.8438 Y259.0301
G01 X119.4677 Y259.2325
G01 X119.1432 Y259.6158
G01 X117.5767 Y260.2325
G01 X115.4210 Y260.3248
G01 X114.1874 Y260.1475
G01 X111.6569 Y260.0002
G01 X110.4892 Y259.7691
G01 X108.0545 Y259.7259
G01 X107.2114 Y259.8780
G01 X105.0101 Y260.8912
G01 X104.6521 Y261.1236
G01 X104.5407 Y261.5200
G01 X105.6281 Y261.5703
G01 X106.5730 Y261.5451
G01 X106.7599 Y261.8433
G01 X105.3419 Y262.5894
G01 X104.2173 Y263.2721
G01 X103.2437 Y264.6326
G01 X102.1083 Y265.8709
G01 X101.2880 Y266.3954
G01 X98.5107 Y267.6589
G01 X98.0652 Y268.3727
G01 X97.8017 Y268.6110
G01 X95.8077 Y269.7523
G01 X94.3718 Y270.8134
G01 X94.0149 Y271.2290
G01 X93.6544 Y271.3907
G01 X93.3682 Y271.7512
G01 X93.8772 Y271.9440
G01 X94.6364 Y271.9009
G01 X95.2796 Y271.7835
G01 X97.2915 Y271.8697
G01 X98.9047 Y271.7416
G01 X99.2748 Y271.6745
G01 X100.2077 Y271.1188
G01 X100.6377 Y270.9607
G01 X101.1754 Y270.9787
G01 X103.2293 Y271.7104
G01 X103.8185 Y271.6494
G01 X104.3239 Y271.3080
G00 Z2.0000


;No. 35: Engraving 75
G00 X122.2821 Y312.3526 Z2.0000
G00 Z0.5000
G01 Z-2.0000 F180
G01 X121.6042 Y310.6939 F1200
G01 X121.2797 Y310.2124
G01 X120.5611 Y309.5106
G01 X120.4138 Y309.1262
G01 X120.4414 Y308.6005
G01 X121.0210 Y306.9645
G01 X121.1731 Y304.7992
G01 X121.6510 Y302.6136
G01 X122.4210 Y300.6483
G01 X122.7360 Y300.1549
G01 X123.0366 Y299.8495
G01 X124.1312 Y299.1657
G01 X125.0534 Y298.1106
G01 X125.6330 Y297.1465
G01 X126.4582 Y296.1453
G01 X126.8330 Y295.5046
G01 X127.3995 Y293.3932
G01 X127.5935 Y291.6291
G01 X127.6127 Y290.6471
G01 X127.5192 Y289.8962
G01 X126.8151 Y288.1321
G01 X126.6941 Y285.6363
G01 X126.3971 Y283.5560
G01 X126.6486 Y282.4087
G01 X126.5731 Y282.0183
G01 X126.3564 Y281.5297
G01 X126.1061 Y280.3452
G01 X125.0115 Y279.3332
G01 X124.0665 Y278.7225
G01 X123.2043 Y277.9356
G01 X122.3468 Y277.3560
G01 X122.0498 Y276.9895
G01 X121.5168 Y275.9392
G01 X121.4977 Y275.5428
G01 X121.7396 Y274.7799
G01 X122.0450 Y274.3105
G01 X122.3923 Y274.0961
G01 X123.6162 Y273.7188
G01 X125.2162 Y273.0110
G01 X125.4378 Y272.8087
G01 X126.6761 Y270.7955
G01 X126.8749 Y269.6781
G01 X127.1719 Y269.1847
G01 X127.6953 Y268.8242
G01 X130.9408 Y267.2014
G01 X131.7336 Y267.0733
G01 X132.9660 Y267.1404
G01 X133.3325 Y266.9511
G01 X133.4857 Y266.4266
G01 X133.3468 Y264.3391
G01 X133.5181 Y263.8086
G01 X134.1804 Y263.0888
G01 X135.3720 Y262.3200
G01 X136.2438 Y261.3619
G01 X136.8139 Y261.0254
G01 X138.4918 Y260.8373
G01 X139.6558 Y260.2625
G01 X139.9193 Y259.9523
G01 X139.9708 Y259.3355
G01 X139.8690 Y258.7379
G01 X139.9337 Y258.2673
G01 X140.1145 Y257.8828
G01 X140.3924 Y257.5595
G01 X141.4858 Y256.8517
G01 X141.7924 Y256.3331
G01 X141.6439 Y255.2349
G01 X141.6762 Y254.8744
G01 X141.8942 Y254.4720
G01 X142.1960 Y254.2708
G01 X142.8307 Y254.2038
G01 X145.8990 Y254.2337
G01 X146.4655 Y254.0816
G01 X146.6643 Y253.7463
G01 X146.6547 Y253.3918
G01 X146.4140 Y253.0565
G01 X145.8571 Y252.6289
G01 X144.1984 Y250.4636
G01 X143.9660 Y250.0481
G01 X143.9385 Y249.6145
G01 X144.1145 Y249.2971
G01 X145.1110 Y248.4672
G01 X146.2427 Y246.1187
G01 X146.5158 Y244.6420
G01 X146.2894 Y243.5007
G01 X146.4235 Y243.0073
G01 X146.7661 Y242.7750
G01 X147.3038 Y242.6588
G01 X148.0822 Y242.6277
G00 Z2.0000


;No. 36: Engraving 1
G00 X167.9997 Y235.9857 Z2.0000
G00 Z0.5000
G01 Z-2.0000 F180
G01 X168.6225 Y236.0600 F1200
G01 X169.3686 Y236.6073
G01 X169.5650 Y236.6264
G01 X169.6919 Y236.5079
G01 X169.8656 Y235.7366
G01 X170.3458 Y234.8755
G01 X170.5949 Y234.4156
G01 X170.7111 Y233.9210
G01 X170.6452 Y232.3737
G01 X170.1386 Y231.1366
G01 X170.0931 Y230.8360
G01 X170.2141 Y230.5893
G01 X171.1087 Y230.2168
G01 X172.0536 Y230.4408
G01 X172.7758 Y230.4887
G01 X173.5207 Y230.3665
G01 X175.0381 Y229.5198
G01 X176.4057 Y228.1282
G01 X176.5866 Y227.5928
G01 X176.6536 Y227.0587
G01 X176.3051 Y226.0886
G01 X174.8884 Y224.4731
G01 X174.7399 Y224.1138
G01 X174.6608 Y223.6898
G01 X174.6045 Y223.2683
G01 X174.4920 Y222.8659
G01 X174.1423 Y222.6994
G01 X172.7746 Y223.4024
G01 X172.6512 Y223.4323
G01 X172.5363 Y223.3725
G01 X172.4500 Y223.2755
G01 X172.4273 Y223.1796
G01 X172.0129 Y221.9808
G01 X171.5327 Y221.3892
G01 X170.7602 Y221.0910
G01 X169.9662 Y220.6359
G01 X169.1195 Y220.4191
G01 X168.9817 Y220.3533
G01 X168.9326 Y220.2072
G01 X168.9446 Y220.0239
G01 X169.0452 Y219.8970
G01 X169.2919 Y219.6838
G01 X169.7003 Y219.4922
G01 X170.8632 Y219.2120
G01 X172.0297 Y218.7772
G01 X172.9734 Y217.6335
G01 X173.8189 Y216.9832
G01 X174.5327 Y216.2467
G01 X175.4848 Y215.5952
G01 X176.0896 Y214.5892
G01 X176.4548 Y213.5556
G01 X176.5051 Y212.2131
G01 X177.1638 Y211.0155
G01 X177.0620 Y210.6419
G01 X177.0441 Y210.4395
G01 X177.0824 Y210.2395
G01 X178.3207 Y208.3592
G01 X178.6776 Y207.2586
G01 X179.7076 Y205.5760
G01 X180.6070 Y203.8634
G01 X181.5782 Y202.4406
G01 X181.6153 Y202.1340
G01 X181.5962 Y201.8262
G01 X180.6728 Y200.1711
G01 X180.5399 Y200.0095
G01 X180.3135 Y199.9616
G01 X179.9243 Y200.0358
G01 X179.7722 Y199.9903
G01 X179.6884 Y199.8298
G01 X179.5842 Y199.5316
G01 X179.2405 Y198.4118
G01 X178.6093 Y197.7196
G01 X178.6620 Y197.6106
G01 X178.7866 Y197.5544
G01 X180.0357 Y197.5915
G01 X180.8561 Y197.9388
G01 X182.4477 Y196.5723
G01 X184.0645 Y195.0310
G01 X184.2489 Y194.5184
G01 X184.2381 Y193.9352
G01 X183.9148 Y193.0154
G01 X184.2381 Y190.7531
G01 X183.6920 Y189.2357
G01 X183.4681 Y188.2669
G01 X181.9004 Y187.3220
G01 X181.8501 Y187.1783
G01 X181.9507 Y187.0238
G01 X183.1195 Y186.8992
G01 X183.8908 Y186.4765
G01 X186.1782 Y185.8297
G01 X186.5016 Y185.4058
G01 X186.4273 Y184.4369
G01 X186.6010 Y182.9207
G01 X186.4022 Y181.6764
G01 X186.6501 Y180.5579
G01 X186.4273 Y177.9710
G01 X186.6501 Y176.7291
G01 X186.4022 Y175.9075
G01 X186.3771 Y174.5890
G01 X186.0788 Y173.6692
G01 X186.3016 Y173.4452
G01 X186.6501 Y173.5949
G01 X187.1723 Y174.1674
G01 X188.1675 Y174.3650
G01 X188.6393 Y174.6896
G01 X189.8334 Y175.2117
G01 X191.0022
G01 X193.2406 Y175.5842
G01 X194.8813 Y175.3363
G01 X195.9256 Y174.7387
G01 X196.6226 Y174.5650
G01 X197.2933 Y174.0920
G01 X198.1388 Y174.0429
G01 X198.4621 Y173.8680
G01 X199.1831
G01 X199.2586 Y175.2357
G01 X199.0849 Y176.4800
G01 X198.0142 Y180.0105
G01 X196.4478 Y182.3986
G01 X194.9567 Y183.9399
G01 X193.9364 Y185.7052
G01 X194.1352 Y186.1770
G01 X193.9112 Y186.7256
G01 X194.1112 Y187.4956
G01 X193.5879 Y188.5399
G01 X193.2154 Y189.7328
G01 X192.6441 Y189.9076
G01 X191.0765 Y189.6837
G01 X190.1316 Y189.7328
G01 X189.8082 Y190.1304
G01 X189.8837 Y190.5543
G01 X190.6298 Y191.2753
G01 X190.9531 Y192.3699
G01 X190.9280 Y193.8861
G01 X190.6298 Y195.5531
G01 X190.8525 Y198.2382
G01 X190.1316 Y200.6502
G01 X189.5603 Y201.4705
G01 X189.7340 Y202.0921
G01 X190.0825 Y202.5891
G01 X190.2561 Y203.6346
G01 X190.0322 Y205.3496
G01 X189.5100 Y205.9963
G01 X188.5926 Y206.7089
G01 X188.3256 Y206.9879
G01 X188.2178 Y207.1903
G01 X188.6393 Y207.5628
G01 X189.2118 Y208.9556
G01 X190.0310 Y209.2155
G01 X190.5220 Y208.9089
G01 X192.0465 Y207.5879
G01 X192.6933 Y207.4885
G01 X193.0669 Y208.0358
G01 X193.0909 Y208.7568
G01 X192.6441 Y209.7269
G01 X192.5436 Y210.4478
G01 X192.7424 Y211.4670
G01 X192.5184 Y212.0143
G01 X192.4944 Y212.6359
G01 X191.6741 Y214.1029
G01 X191.7974 Y214.8982
G01 X191.4992 Y215.6443
G01 X191.1771 Y217.4599
G01 X191.2513 Y219.1509
G01 X191.1268 Y220.3197
G01 X191.2513 Y221.2156
G01 X190.7292 Y222.0850
G01 X190.9076 Y222.5257
G01 X190.6789 Y223.2287
G01 X190.2070 Y224.4228
G01 X189.3363 Y225.5174
G01 X189.0298 Y226.9078
G01 X188.6106 Y228.6719
G01 X188.6980 Y229.4396
G01 X187.6872 Y231.3929
G01 X187.0597 Y231.6204
G01 X186.6118 Y232.0144
G01 X186.1148 Y231.7318
G01 X185.7411 Y231.7581
G01 X185.1591 Y233.7222
G01 X185.2573 Y234.3198
G01 X183.8657 Y236.6324
G01 X183.5675 Y237.3534
G01 X183.2058 Y237.5486
G01 X182.6489 Y237.5869
G01 X182.3950 Y237.9115
G01 X182.3579 Y238.4683
G01 X182.0010 Y239.4672
G01 X181.5028 Y239.7163
G01 X180.9315 Y240.3869
G01 X180.7016 Y241.0791
G01 X179.8046 Y241.3498
G01 X179.6201 Y241.7103
G01 X179.6944 Y243.4935
G01 X178.2213 Y245.5594
G01 X176.8776 Y247.0516
G01 X175.7099 Y247.9965
G01 X174.3506 Y249.4600
G01 X172.9985 Y250.5079
G01 X170.2632 Y251.9499
G01 X170.5865 Y249.7367
G01 X170.5111 Y248.2696
G01 X170.1889 Y246.6528
G01 X169.6668 Y246.0564
G01 X168.6225 Y245.8828
G01 X168.0249 Y246.0816
G01 X166.7314 Y246.2301
G01 X166.2596 Y245.9319
G01 X166.0608 Y244.8133
G01 X166.1602 Y244.3905
G01 X166.7817 Y243.3211
G01 X167.6272 Y241.1079
G01 X167.9063 Y239.9438
G01 X167.8632 Y239.6576
G01 X167.7829 Y239.3809
G01 X167.6261 Y238.7965
G01 X167.5135 Y238.4444
G01 X167.6021 Y237.5773
G01 X167.9997 Y235.9857
G01 X168.1255 Y235.6875
G01 X168.6225 Y235.4144
G01 X168.6967 Y235.0408
G01 X168.2991 Y233.7474
G01 X167.7518 Y232.8024
G01 X167.1554 Y232.1809
G01 X165.9614 Y231.1114
G01 X165.9865 Y230.1665
G01 X165.6380 Y228.8240
G01 X164.8177 Y228.3270
G01 X164.7686 Y227.6551
G01 X164.8668 Y227.4312
G01 X164.8428 Y226.5857
G01 X164.9913 Y226.0144
G01 X164.8428 Y225.0695
G01 X164.5686 Y224.6467
G01 X164.1458 Y224.3234
G01 X163.9470 Y223.8755
G01 X164.0464 Y222.6323
G01 X163.6488
G01 X163.5494 Y222.9557
G01 X163.0775 Y223.4275
G01 X162.7290 Y224.5713
G01 X162.3063 Y225.2683
G01 X161.6105 Y225.8156
G01 X161.2859
G01 X160.7398 Y224.0240
G01 X160.2919 Y223.6515
G01 X159.1733 Y223.0299
G01 X159.0236 Y223.2790
G01 X159.0979 Y224.0994
G01 X158.3769 Y224.5473
G01 X158.0284 Y224.8958
G01 X157.7805 Y224.7461
G01 X157.8044 Y223.9497
G01 X157.6308 Y223.6767
G01 X157.2080 Y223.7270
G01 X157.0835 Y224.0240
G01 X156.2392 Y224.1988
G01 X155.8907 Y224.5222
G01 X154.6224
G01 X154.0260 Y225.2192
G01 X153.9505 Y224.6958
G01 X153.4535 Y224.5713
G01 X153.3541 Y224.9198
G01 X150.2703 Y225.6659
G01 X149.6128 Y225.3437
G01 X148.6188 Y223.9509
G01 X148.3697 Y223.4036
G01 X147.1014 Y222.2599
G01 X145.9074 Y220.7928
G01 X144.8379 Y219.9964
G01 X144.2415
G01 X143.6451 Y220.5197
G01 X143.4463 Y220.4443
G01 X143.2223 Y219.6982
G01 X142.8235 Y218.8778
G01 X140.6115 Y217.2610
G01 X140.0642 Y217.2862
G01 X139.2187 Y217.1125
G01 X138.4726 Y217.2610
G01 X137.8762 Y216.7892
G01 X136.8067 Y216.6898
G01 X136.0606 Y216.0682
G01 X134.7923 Y215.7197
G01 X134.7672 Y215.5209
G01 X135.2151 Y215.4958
G01 X136.4331 Y214.7006
G01 X136.7564 Y214.1784
G01 X136.4331 Y214.1281
G01 X135.5133 Y214.8251
G01 X134.8175 Y214.8000
G01 X133.7732 Y215.3473
G01 X133.1265 Y215.3964
G01 X133.5241 Y214.9497
G01 X133.7229 Y214.6503
G01 X133.0019 Y214.8994
G01 X132.4055 Y215.1976
G01 X131.8079 Y215.5964
G01 X129.9923 Y216.2670
G01 X128.5504 Y216.2167
G01 X128.1528 Y216.6646
G01 X127.8797 Y216.8634
G01 X127.4067 Y216.8143
G01 X127.0330 Y217.1125
G01 X126.0139 Y217.0371
G01 Y216.6646
G01 X126.3875 Y216.1425
G01 X127.1588 Y215.6958
G01 X127.5061 Y215.1976
G01 X127.9791 Y214.7748
G01 X129.0234 Y213.5808
G01 X128.7743 Y213.0838
G01 X127.7803 Y213.3329
G01 X126.0642 Y213.3580
G01 X124.0498 Y211.5916
G01 X122.6318 Y210.5975
G01 X122.6078 Y209.9999
G01 X122.7815 Y208.7329
G01 X122.3096 Y208.1353
G01 X120.8917 Y208.2598
G01 X119.3743 Y208.3341
G01 X117.5348 Y208.0610
G01 X117.3851 Y207.6382
G01 X118.1060 Y207.5388
G01 X119.4749 Y207.2155
G01 X119.5240 Y206.5939
G01 X120.3204 Y205.4754
G01 X121.6378 Y204.4550
G01 X122.2090 Y204.2813
G01 X122.4581 Y203.5604
G01 X123.0306 Y202.9879
G01 X123.9755 Y202.3424
G01 X125.0941 Y202.9628
G01 X125.7659 Y202.8634
G01 X126.6354 Y203.0382
G01 X126.5372 Y202.5903
G01 X125.7659 Y202.3173
G01 X125.1683 Y201.4969
G01 X126.3624 Y201.2729
G01 X127.6306 Y201.3472
G01 X129.1229 Y200.9484
G01 X130.8378 Y199.9795
G01 X131.2366 Y198.5615
G01 X131.6091 Y196.7711
G01 X132.4055 Y195.7520
G01 X133.1756 Y193.9364
G01 X134.1456 Y193.1903
G01 X134.3444 Y192.4693
G01 X133.8223 Y190.5555
G01 X134.6175 Y188.9878
G01 X134.4199 Y188.5411
G01 X133.8965 Y188.2920
G01 X133.2750 Y187.3723
G01 X133.1756 Y185.9052
G01 X134.2450 Y183.8657
G01 X134.3444 Y182.8704
G01 X135.1157 Y181.9016
G01 X134.8426 Y181.2549
G01 X134.1432 Y181.4501
G01 X132.8522 Y182.0010
G01 X131.3851 Y182.5231
G01 X130.0175 Y182.6225
G01 X129.4714 Y181.3291
G01 X128.4761 Y180.1363
G01 X128.0043 Y178.2704
G01 X127.9540 Y177.2513
G01 X127.5815 Y176.2069
G01 X128.8246 Y174.6153
G01 X129.5947 Y174.3171
G01 X130.3408 Y173.5219
G01 X130.2175 Y173.2979
G01 X129.3468 Y173.5219
G01 X128.6498 Y173.2728
G01 X127.9288 Y173.4716
G01 X127.1336 Y173.3219
G01 X125.6665 Y173.5710
G01 X124.3480 Y174.7890
G01 X123.9252 Y175.4860
G01 X123.6270 Y176.6045
G01 X122.8809 Y178.1207
G01 X123.1791 Y178.8668
G01 X123.2546 Y179.4141
G01 X122.5084 Y180.0117
G01 X121.7875 Y179.4896
G01 X121.2150 Y179.7375
G01 X121.0905 Y180.3842
G01 X120.7180 Y181.0812
G01 X120.5192 Y182.1746
G01 X119.9719 Y183.5172
G01 X119.1264 Y184.3878
G01 X119.3252 Y186.1291
G01 X119.2006 Y187.4717
G01 X119.0270 Y188.6896
G01 X118.7276 Y189.1124
G01 X118.7036 Y189.9579
G01 X117.8078 Y190.7040
G01 X117.0126 Y191.0022
G01 X116.2413 Y191.5495
G01 X115.1479 Y191.7232
G01 X114.2030 Y192.1208
G01 X113.7048 Y192.6681
G01 X112.6365 Y193.0909
G01 X110.9204 Y192.7927
G01 X110.5467 Y192.4441
G01 X109.7515 Y192.1962
G01 X109.2784 Y192.3950
G01 X108.6078 Y192.3196
G01 X108.0856 Y192.7184
G01 X106.9910 Y193.2154
G01 X105.8221 Y193.6885
G01 X105.2509 Y193.6130
G01 X104.8533 Y193.7627
G01 X104.0820 Y195.1795
G01 X103.4101 Y195.5028
G01 X102.6149 Y196.3735
G01 X101.9934 Y197.5424
G01 X101.2724 Y199.6310
G01 X100.8736 Y199.7304
G01 X100.8245 Y198.9352
G01 X99.7550 Y196.7220
G01 X99.5562 Y195.3543
G01 X98.8101 Y194.0118
G01 X98.9838 Y193.2657
G01 X98.7598 Y192.4693
G01 X99.1574 Y191.5495
G01 X101.1478 Y189.7843
G01 X102.4161 Y188.4405
G01 X103.6341 Y188.2920
G01 X104.3802 Y187.3723
G01 X104.5790 Y186.3771
G01 X104.8533 Y186.0788
G01 X106.0461 Y185.6812
G01 X106.4940 Y184.8357
G01 X106.6425 Y183.9160
G01 X106.0964 Y183.1938
G01 X104.6293 Y182.7710
G01 X101.6952 Y182.6716
G01 X100.4760 Y183.6166
G01 X99.3071 Y184.2381
G01 X97.9394 Y184.4130
G01 X94.7322 Y184.4872
G01 X93.6125 Y184.2884
G01 X91.1514 Y182.4980
G01 X90.0077 Y182.2489
G01 X89.1861 Y182.2237
G01 X88.1166 Y182.6225
G01 X87.7442 Y183.0201
G01 X87.4711 Y184.0142
G01 X86.8496 Y184.8106
G01 X86.0041 Y185.3830
G01 X84.7849 Y185.6812
G01 X84.4124 Y186.1291
G01 X82.4232 Y186.8992
G01 X81.7262 Y186.9735
G01 X80.1597 Y186.9244
G01 X79.3142 Y187.1232
G01 X78.0220
G01 X77.5992 Y187.4956
G01 X77.2016 Y188.2669
G01 X76.3058 Y188.6154
G01 X75.7333 Y188.7148
G01 X74.9381 Y188.2417
G01 X74.5645 Y188.1926
G01 X74.0435 Y188.5411
G01 X73.4459 Y188.5651
G01 X72.3261 Y188.1423
G01 X71.8052
G01 X71.3082 Y188.6154
G01 X69.9393 Y189.0633
G01 X69.6171 Y189.4860
G01 X68.5465 Y190.0082
G01 X68.2986 Y190.4549
G01 X67.7261 Y192.9663
G01 X67.3285 Y194.4585
G01 X66.9057 Y194.6334
G02 X66.4087 Y189.8585 I-84.8798 J6.4217
G01 X66.8566 Y188.1423
G01 X67.7764 Y187.5950
G01 X69.9153 Y185.6309
G01 X70.8100 Y184.3387
G01 X71.4818 Y184.0393
G01 X72.2279 Y184.2142
G01 X72.7752 Y184.1387
G01 X73.0974 Y183.4920
G01 X73.6196 Y183.0944
G01 X74.5405 Y182.7962
G01 X75.5597 Y182.9207
G01 X77.2256 Y181.9507
G01 X77.2998 Y181.3543
G01 X76.9525 Y180.7579
G01 X75.8579 Y180.5339
G01 X74.4902 Y180.5088
G01 X72.0782 Y179.9375
G01 X71.9034 Y179.2788
G01 X70.9154 Y177.5698
G01 X70.8782 Y177.3495
G01 X71.0076 Y177.0021
G01 X71.9585 Y175.7878
G01 X72.3752 Y175.0381
G01 X72.6627 Y174.2261
G01 X73.6172 Y173.1339
G01 X74.2806 Y172.1398
G01 X74.4615 Y171.7494
G01 X74.5489 Y171.1087
G01 X74.4471 Y169.9195
G01 X74.5261 Y169.5770
G01 X74.7812 Y169.2728
G01 X75.0782 Y169.1626
G01 X75.6711 Y169.1506
G01 X76.0052 Y169.0464
G01 X76.1298 Y168.8213
G01 X76.1489 Y168.3758
G01 X75.9812 Y167.7470
G01 X75.3693 Y167.0632
G01 X75.3190 Y166.8991
G01 X75.5178 Y166.4835
G01 X78.3920 Y164.7757
G01 X78.8699 Y164.3494
G01 X79.2076 Y163.8117
G01 X81.2471 Y161.7566
G01 X82.1753 Y160.6272
G01 X83.7502 Y159.4811
G01 X84.3070 Y159.3949
G01 X84.7190 Y159.5290
G01 X86.1059 Y160.3709
G01 X86.8424 Y160.7003
G01 X87.1490 Y160.9506
G01 X87.2268 Y161.2128
G01 X87.0747 Y161.9757
G01 X87.1897 Y162.3362
G01 X87.7837 Y162.6895
G01 X88.2747 Y162.7566
G01 X88.8687 Y162.7206
G01 X89.6101 Y162.4572
G01 X90.5514 Y161.8655
G01 X93.5730 Y160.6583
G01 X94.3011 Y160.0787
G01 X96.5718 Y158.7062
G01 X97.6520 Y158.2116
G01 X98.0185 Y157.9062
G01 X100.1646 Y155.6978
G01 X101.1059 Y153.9841
G01 X101.9778 Y151.9397
G01 X102.2880 Y150.2511
G01 X102.9838 Y149.2200
G01 X103.4700 Y148.3050
G01 X103.8592 Y147.2008
G01 X104.6054 Y146.1385
G01 X105.3479 Y144.5277
G01 X105.3012 Y143.3505
G01 X105.4581 Y142.4415
G01 X106.1167 Y140.5505
G01 X107.0581 Y139.1600
G01 X108.9491 Y135.9935
G01 X110.0844 Y134.9444
G01 X110.6090 Y134.5971
G01 X112.3335 Y134.1456
G01 X112.9503 Y133.8043
G01 X114.3084 Y132.8091
G01 X115.3839 Y131.1803
G01 X115.7120 Y129.7229
G01 X115.5407 Y128.5576
G01 X115.5683 Y128.0151
G01 X116.1755 Y126.0630
G01 X116.5611 Y125.4043
G01 X117.4833 Y124.1899
G01 X118.2845 Y123.3851
G01 X118.7072 Y122.8234
G01 X119.2126 Y121.9336
G01 X119.8150 Y119.5420
G01 X120.0234 Y116.3264
G01 X120.1719 Y115.9252
G01 X120.9551 Y114.6797
G01 X121.3396 Y113.8988
G01 X122.0773 Y111.8557
G01 X122.9575 Y110.1180
G01 X123.5611 Y107.9036
G01 X124.4905 Y105.4928
G01 X124.7731 Y104.9167
G01 X125.3588 Y104.1826
G01 X125.5911 Y103.5970
G01 X125.9755 Y101.5227
G01 X126.0594 Y100.3335
G01 X126.6665 Y97.1059
G01 X126.9815 Y96.0700
G01 X127.6905 Y94.4101
G01 X127.5001 Y91.9825
G01 X127.5516 Y90.9514
G01 X127.0366 Y88.7562
G01 X127.0234 Y88.3226
G01 X127.2917 Y87.1154
G01 X127.3109 Y85.8100
G01 X127.1767 Y85.1394
G01 X127.2869 Y84.3945
G01 X127.2270 Y84.0651
G01 X127.0234 Y83.6687
G01 X126.5779 Y83.1513
G01 X125.8091 Y82.6927
G01 X125.7671 Y82.4915
G01 X125.9204 Y82.1262
G01 X126.2486 Y81.8028
G01 X127.9300 Y80.8424
G01 X128.3588 Y80.9298
G01 X128.4857 Y80.8663
G01 X128.4306 Y80.6998
G01 X128.0342 Y80.2723
G01 X126.9444 Y79.3142
G01 X125.5216 Y78.5393
G01 X125.2294 Y78.4352
G01 X124.8306 Y78.4543
G01 X124.2378 Y78.7142
G01 X123.7492 Y79.2615
G01 X123.5803 Y79.5705
G01 X123.3504 Y79.8891
G01 X123.2318 Y79.8100
G01 X123.1719 Y79.5609
G01 X123.0917 Y78.5825
G01 X123.1096 Y78.0639
G01 X123.2809 Y77.5250
G01 X123.5324 Y76.9956
G01 X123.9216 Y76.5633
G01 X124.2653 Y76.3381
G01 X124.7336 Y76.2579
G01 X127.0606 Y76.2651
G01 X128.9420 Y75.7154
G01 X130.8750 Y75.2950
G01 X131.6582 Y75.3621
G01 X132.7336 Y75.7034
G01 X133.2067 Y75.7465
G01 X133.9109 Y75.5321
G01 X135.4367 Y74.3369
G01 X135.7193 Y73.6543
G01 X135.9935 Y72.2698
G01 X136.2702 Y71.4770
G01 X136.3037 Y70.9764
G01 X136.1001 Y70.0734
G01 X136.1181 Y69.4327
G01 X136.2522 Y69.0303
G01 X136.6187 Y68.5117
G01 X137.5181 Y67.6950
G01 X137.9672 Y66.9812
G01 X138.2271 Y66.2195
G01 X138.4175 Y64.6758
G01 X138.2319 Y62.9309
G01 X138.4079 Y62.4315
G01 X140.1924 Y59.6374
G01 X140.2067 Y59.0770
G01 X139.9984 Y58.2841
G01 X139.9289 Y57.4243
G01 X140.0954 Y56.7045
G01 X140.3457 Y56.3021
G01 X140.7169 Y55.9057
G01 X141.0331 Y55.7033
G01 X141.5600 Y55.4722
G01 X142.1493 Y55.4231
G01 X143.6690 Y55.7225
G01 X144.3505 Y55.7045
G01 X146.7289 Y55.4051
G01 X147.3134 Y55.1608
G01 X147.6930 Y55.1548
G01 X148.3553 Y55.3440
G01 X148.7768 Y55.3500
G01 X150.0942 Y55.1979
G01 X150.6319 Y54.8075
G01 X151.2858 Y53.8434
G01 X152.1062 Y52.9165
G01 X152.7457 Y51.8865
G01 X153.6954 Y50.7943
G01 X154.0475 Y50.0314
G01 X154.5445 Y49.3368
G01 X155.9398 Y48.2697
G01 X156.4955 Y47.6781
G01 X156.8571 Y47.4038
G01 X157.2368 Y47.3296
G01 X157.9925 Y46.9787
G01 X158.6559 Y46.7571
G01 X159.7733 Y45.8781
G01 X159.8559 Y45.2625
G01 X160.6488 Y43.1284
G01 X160.8488 Y42.8290
G01 X161.2009 Y42.6098
G01 X165.0763 Y41.3224
G01 X165.4979 Y41.2673
G01 X168.3674 Y41.4326
G01 X170.3003 Y41.3655
G01 X172.1123 Y41.4266
G01 X172.8033 Y41.5296
G01 X177.0453 Y43.0793
G01 X178.3890 Y43.4697
G01 X180.3543 Y44.6769
G01 X183.0525 Y45.8913
G01 X184.5315 Y45.5428
G01 X185.1854 Y45.1655
G01 X185.5603 Y45.1104
G01 X185.8848 Y45.3176
G01 X186.0848 Y45.7080
G01 X186.5938 Y47.3787
G01 X186.6777 Y48.5619
G01 X186.3950 Y51.5871
G01 X186.1315 Y53.0757
G01 X185.5100 Y54.6913
G01 X185.1387 Y55.2278
G01 X184.6381 Y55.6374
G01 X183.9746 Y55.8314
G01 X181.4309 Y56.0758
G01 X179.9147 Y56.4722
G01 X178.5890 Y56.7105
G01 X177.7040 Y56.6494
G01 X176.9662 Y56.3021
G01 X176.5578 Y56.2099
G01 X176.2429 Y56.2350
G01 X175.2189 Y56.7225
G01 X174.8991 Y57.1069
G01 X174.8896 Y57.4853
G01 X175.0944 Y57.8638
G01 X176.8692 Y59.8698
G01 X177.9770 Y61.2782
G01 X178.6345 Y61.8339
G01 X178.9602 Y62.0039
G01 X180.0860 Y62.0782
G01 X180.4345 Y62.2303
G01 X180.5591 Y62.6087
G01 X180.4249 Y63.5836
G01 X180.5219 Y64.0051
G01 X180.9064 Y64.7057
G01 X181.2776 Y64.9752
G01 X184.0776 Y65.6087
G01 X184.3315 Y65.9141
G01 X184.4070 Y66.2243
G01 X184.3315 Y66.7010
G01 X183.9519 Y67.2195
G01 X183.0070 Y68.1093
G01 X181.8381 Y68.7070
G01 X180.6285 Y69.1956
G01 X180.2249 Y69.4638
G01 X179.8585 Y70.0303
G01 X179.8632 Y71.1166
G01 X179.5854 Y71.4579
G01 X178.8668 Y71.8663
G01 X178.6584 Y72.2627
G01 X178.8153 Y72.6052
G01 X179.2321 Y72.8890
G01 X179.6393 Y73.0627
G01 X179.7686 Y73.2531
G01 X179.6561 Y73.3740
G01 X179.4573 Y73.4088
G01 X179.0620 Y73.4040
G01 X177.6297 Y73.7022
G01 X177.2536 Y74.0567
G01 X177.1614 Y74.3489
G01 X177.3423 Y75.1848
G01 X177.6010 Y75.5753
G01 X177.8980 Y75.7884
G01 X178.7004 Y75.9286
G01 X183.1363 Y75.9357
G01 X184.0812 Y76.1549
G01 X184.5064 Y76.3106
G01 X184.7231 Y76.5441
G01 X184.6537 Y76.7789
G01 X184.4944 Y77.2100
G01 X183.2896 Y78.5765
G01 X182.8118 Y79.2902
G01 X182.6130 Y80.8447
G01 X182.7148 Y82.0280
G01 X182.6034 Y82.5717
G01 X182.3112 Y82.8579
G01 X181.0417 Y83.3513
G01 X180.7914 Y83.6448
G01 X180.7674 Y83.8699
G01 X180.9531 Y84.2184
G01 X181.8153 Y85.0052
G01 X182.9183 Y86.3585
G01 X183.4417 Y87.2496
G01 X183.6788 Y87.7310
G01 X183.7950 Y88.3538
G01 X183.7064 Y88.8903
G01 X183.2657 Y89.6220
G01 X181.2776 Y91.7143
G01 X180.7399 Y92.7155
G01 X180.2201 Y93.2520
G01 X178.9279 Y94.0628
G01 X178.1435 Y94.2640
G01 X175.8033 Y94.3801
G01 X175.2884 Y94.6544
G01 X174.6620 Y95.2520
G01 X173.8464 Y95.6796
G01 X172.4512 Y96.0508
G01 X172.0824 Y96.0460
G01 X171.1039 Y95.9790
G01 X170.6129 Y95.8724
G01 X170.0321 Y95.8496
G01 X168.8823 Y96.0700
G01 X167.3243 Y96.9359
G01 X166.1470 Y97.1311
G01 X165.6931 Y97.3382
G01 X165.1230 Y97.9179
G01 X164.1817 Y98.4365
G01 X163.9218 Y98.8149
G01 X163.9733 Y100.0712
G01 X163.7554 Y100.4365
G01 X162.7218 Y101.4005
G01 X162.0859 Y102.8832
G01 X162.1146 Y103.1814
G01 X162.4895 Y103.4317
G01 X163.4907 Y103.5598
G01 X165.2021 Y103.9874
G01 X165.4656 Y104.1395
G01 X165.7350 Y104.5179
G01 X165.9889 Y105.4078
G01 X166.0320 Y107.4880
G01 X166.1937 Y107.8173
G01 X168.0057 Y110.0509
G01 X168.1494 Y110.5934
G01 X167.9961 Y111.0317
G01 X167.6632 Y111.3922
G01 X165.6368 Y112.8689
G01 X164.9422 Y113.5395
G01 X164.0799 Y115.3515
G01 X164.0703 Y115.8880
G01 X164.3027 Y116.2413
G01 X164.5985 Y116.4857
G01 X165.6656 Y117.0042
G01 X165.9937 Y117.3336
G01 X166.2392 Y118.0964
G01 X166.2081 Y118.5779
G01 X166.0727 Y118.9923
G01 X165.6692 Y119.9444
G01 X164.4919 Y121.9635
G01 X163.7781 Y122.8486
G01 X163.4536 Y123.1228
G01 X163.0188 Y123.2749
G01 X161.7709 Y123.1647
G01 X160.1446 Y123.2138
G01 X158.5446 Y123.8977
G01 X155.8428 Y124.7264
G01 X154.4607 Y125.3671
G01 X154.0487 Y125.8186
G01 X154.0164 Y126.2210
G01 X154.2248 Y127.0079
G01 X154.2200 Y127.2091
G01 X154.0212 Y127.6127
G01 X153.4272 Y128.1923
G01 X152.8667 Y128.9300
G01 X151.4763 Y129.8570
G01 X151.1373 Y130.1983
G01 X150.4331 Y131.2845
G01 X149.8487 Y131.6570
G01 X148.8104 Y131.9133
G01 X148.5649 Y132.1324
G01 X148.6391 Y132.4378
G01 X148.9721 Y132.7301
G01 X149.5709 Y133.0354
G01 X150.5445 Y133.2977
G01 X150.8224 Y133.5169
G01 X151.0164 Y133.8834
G01 X151.1373 Y134.4259
G01 X151.1888 Y135.2798
G01 X150.9793 Y136.6798
G01 X152.2918 Y136.5552
G01 X153.1122 Y136.2810
G01 X155.3553 Y135.0486
G01 X156.1853 Y134.3959
G01 X156.7553 Y134.2977
G01 X157.0847 Y134.5971
G01 X157.3158 Y135.6953
G01 X157.5434 Y136.2989
G01 X158.0763 Y137.1840
G01 X159.1194 Y138.4522
G01 X159.2547 Y138.8606
G01 X159.2500 Y139.1169
G01 X158.9757 Y139.6055
G01 X157.6368 Y140.6918
G01 X156.7697 Y141.5517
G01 X156.4224 Y141.7948
G01 X155.2392 Y142.3133
G01 X154.9062 Y142.7229
G01 X154.4655 Y144.0343
G01 X154.0906 Y144.4918
G01 X153.3529 Y144.9433
G01 X150.7062 Y146.2056
G01 X149.8858 Y146.5050
G01 X149.6212 Y146.7301
G01 X149.5984 Y147.1337
G01 X149.8164 Y147.6152
G01 X150.5948 Y148.6523
G01 X151.2631 Y149.2810
G01 X152.2128 Y149.9086
G01 X153.8032 Y150.6475
G01 X154.5769 Y150.7996
G01 X156.5050 Y151.3852
G01 X157.5673 Y151.2571
G01 X159.0787 Y151.3673
G01 X159.4955 Y151.2631
G01 X159.8943 Y150.9397
G01 X160.3949 Y150.0487
G01 X160.7098 Y149.7445
G01 X160.9374 Y149.6523
G01 X161.3961 Y149.7445
G01 X161.7110 Y150.0307
G01 X162.4296 Y151.0559
G01 X162.8979 Y151.5685
G01 X163.4093 Y151.8140
G01 X163.9877 Y152.0140
G01 X164.4751 Y152.1230
G01 X164.7937 Y152.1326
G01 X164.7338 Y151.8451
G01 X163.9482 Y151.4260
G01 X163.2512 Y150.8188
G01 X162.9817 Y150.4906
G01 X163.0715 Y150.2918
G01 X163.8679 Y150.6499
G01 X164.4919 Y150.7565
G01 X165.7997 Y151.0559
G01 X168.3446 Y152.4703
G01 X170.3374 Y153.2882
G01 X171.1075 Y153.5086
G01 X171.4081 Y153.7038
G01 X172.4704 Y154.7948
G01 X173.4943 Y156.3996
G01 X174.9638 Y157.6248
G01 X175.6836 Y157.7050
G01 X177.0117 Y160.9254
G01 X177.0333 Y161.6164
G01 X177.2716 Y162.2152
G01 X177.5710 Y162.2620
G01 X177.7710 Y161.9661
G01 X177.8764 Y161.4344
G01 X177.8956 Y160.5997
G01 X177.8632 Y159.8116
G01 X178.0201 Y159.8056
G01 X178.3351 Y160.2919
G01 X178.7890 Y161.1386
G01 X179.0429 Y161.7697
G01 X178.8632 Y162.2943
G01 X178.9531 Y162.9051
G01 X179.1578 Y163.2141
G01 X179.2860 Y163.0224
G01 X179.5279 Y162.3194
G01 X179.5662 Y161.9494
G01 X179.8225 Y161.1302
G01 X179.8357 Y160.3122
G01 X180.0393 Y159.7625
G01 X180.2573 Y159.6344
G01 X180.7040 Y159.1613
G01 X180.9603 Y158.4200
G01 X181.1135 Y158.4080
G01 X181.3950 Y159.4308
G01 X181.2800 Y160.0955
G01 X181.2537 Y160.8883
G01 X181.4453 Y161.3482
G01 X181.6261 Y161.8679
G01 X181.6525 Y162.4332
G01 X182.0537 Y162.5709
G01 X182.3914 Y162.4727
G01 X182.6345 Y162.5757
G01 X183.1710 Y162.8691
G01 X183.6824 Y162.7542
G01 X183.9902 Y162.4081
G01 X184.1806 Y162.3446
G01 X184.6417 Y161.7063
G01 X184.7950 Y161.0799
G01 X184.7818 Y160.7841
G01 X184.8261 Y160.6296
G01 X185.5100 Y161.9637
G01 X185.6118 Y162.4272
G01 X185.5782 Y162.8823
G01 X185.3327 Y163.3123
G01 X185.2573 Y163.7578
G01 X184.9675 Y164.4967
G01 X184.8537 Y164.7614
G01 X185.0309 Y164.8811
G01 X185.3136 Y164.6847
G01 X185.7291 Y164.5566
G01 X186.0142 Y164.9278
G01 X186.2046 Y165.3195
G01 X186.7291 Y166.7159
G01 X186.7986 Y167.1254
G01 X186.7842 Y168.4907
G01 X186.9052 Y169.1925
G01 X187.0669 Y169.5901
G01 X187.3363 Y169.9003
G01 X188.6753 Y170.7794
G01 X190.9938 Y170.8955
G01 X191.8980 Y170.7063
G01 X192.3004 Y170.5410
G01 X192.7220 Y170.2237
G01 X193.3759 Y169.2847
G01 X193.5471 Y168.8883
G01 X193.6454 Y168.4620
G01 X193.6537 Y167.8644
G01 X193.9052 Y167.6644
G01 X194.0525 Y167.8644
G01 X194.1687 Y168.2105
G01 X194.2382 Y168.6320
G01 X194.0992 Y169.9374
G01 X194.1460 Y170.4129
G01 X194.8454 Y171.2608
G01 X195.0681 Y171.6883
G01 X195.2609 Y173.0884
G01 X195.5280 Y171.8788
G01 X195.3543 Y170.4129
G01 X195.7520 Y169.4668
G01 X197.1196 Y168.6225
G01 X198.1843 Y167.2464
G01 X198.7855 Y167.1542
G01 X200.5268 Y168.0991
G01 X201.0466 Y168.1434
G01 X201.5711 Y168.0488
G01 X202.3256 Y167.4811
G01 X202.9388 Y166.8560
G01 X203.2981 Y166.2248
G01 X203.3855 Y165.5877
G01 X203.4107 Y165.2141
G01 X203.2861 Y164.8416
G01 X202.5017 Y164.1518
G01 X201.5101 Y163.5877
G01 X200.5759 Y162.9278
G01 X199.6059 Y160.4655
G01 X198.7364 Y158.6751
G01 X197.9316 Y157.9793
G01 X197.9136 Y157.8703
G01 Y157.5098
G01 X197.9651 Y157.1985
G01 X198.0993 Y156.9122
G01 X198.4981 Y156.3877
G01 X199.1472 Y155.6739
G01 X199.3508 Y155.2224
G01 X199.4574 Y154.2487
G01 X199.1831 Y153.5026
G01 X198.9592 Y152.9314
G01 X198.8837 Y152.6296
G01 X198.8825 Y152.2607
G01 X199.2813 Y150.8056
G01 X199.5125 Y150.0978
G01 X199.2586 Y148.9936
G01 X199.2298 Y148.6762
G01 X199.3604 Y147.4930
G01 X199.3280 Y146.7553
G01 X199.3879 Y146.2607
G01 Y146.0343
G01 X199.3089 Y145.6140
G01 X198.7340 Y144.3265
G01 X198.6921 Y144.0822
G01 X198.7855 Y143.7780
G01 X199.8645 Y142.5636
G01 X200.1663 Y142.0822
G01 X200.4166 Y141.8259
G01 X200.7137 Y141.6487
G01 X202.7759 Y140.8858
G01 X203.0909 Y140.6307
G01 X203.5221 Y140.1301
G01 X204.1712 Y139.2570
G01 X205.3532 Y137.5133
G01 X205.8682 Y136.2379
G01 X205.9891 Y135.6822
G01 X206.0586 Y135.0175
G01 X206.2346 Y134.1456
G01 X206.2155 Y133.0235
G01 X206.0766 Y131.8211
G01 X205.8454 Y130.1684
G01 X205.8131 Y129.3324
G01 X205.8586 Y128.8630
G01 X205.9891 Y128.6246
G01 X206.4382 Y128.1001
G01 X206.7209 Y127.8139
G01 X207.0454 Y127.1360
G01 X207.1472 Y126.6414
G01 X207.3700 Y126.0809
G01 X207.7317 Y125.6905
G01 X207.8610 Y125.4953
G01 X208.0418 Y125.1348
G01 X208.1903 Y124.7264
G01 X208.3484 Y124.3851
G01 X208.5424 Y124.0498
G01 X208.9880 Y123.5252
G01 X209.2287 Y123.3120
G01 X209.3640 Y123.0306
G01 X209.4371 Y122.6833
G01 X209.4933 Y122.2138
G01 X209.4742 Y120.8953
G01 X209.4886 Y120.5480
G01 X209.6047 Y120.0545
G01 X209.6323 Y119.8282
G01 X209.5856 Y119.6210
G01 X209.4418 Y119.4689
G01 X209.2886 Y119.2306
G01 X209.2287 Y119.0234
G01 X209.0622 Y118.7791
G01 X208.6730 Y118.3336
G01 X208.4921 Y117.8641
G01 X208.3436 Y117.5096
G01 Y117.2449
G01 X208.6790 Y117.2282
G01 X208.9868 Y117.0605
G01 X209.5209 Y117.2294
G01 X209.7161 Y117.1264
G01 X209.8502 Y116.8881
G01 X209.9520 Y116.6018
G01 X210.2502 Y116.4437
G01 X210.4371 Y116.3168
G01 X210.9209 Y115.9383
G01 X211.4694 Y115.4916
G01 X211.8466 Y114.9731
G01 X211.9365 Y114.5970
G01 X212.1125 Y114.2725
G01 X212.5976 Y113.6641
G01 X212.8227 Y113.4222
G01 X213.1113 Y113.2533
G01 X213.3281 Y113.0294
G01 X213.4886 Y112.7383
G01 X213.8251 Y111.8449
G01 X213.7808 Y111.4808
G01 X213.5281 Y111.1790
G01 X213.1736 Y110.7192
G01 X212.9053 Y110.5228
G01 X212.6023 Y110.3766
G01 X212.1784 Y109.8245
G01 X211.9065 Y109.5395
G01 X211.7041 Y109.1922
G03 X210.4742 Y108.3790 I6.3805 J-10.9873
G01 X210.2730 Y108.3024
G01 X209.8646 Y108.3599
G01 X209.4886 Y108.4233
G01 X209.1065 Y108.3084
G01 X208.9556 Y108.1814
G01 X208.7065 Y107.7167
G01 X208.6263 Y107.6341
G01 X208.2658 Y107.4545
G01 X208.1616 Y107.3108
G01 X208.1137 Y107.1694
G01 X208.1532 Y106.9694
G01 X208.2275 Y106.7922
G01 X208.2418 Y106.3108
G01 X208.2227 Y105.9934
G01 X208.1484 Y105.7072
G01 X207.7544 Y105.2437
G01 X207.6814 Y105.0664
G01 X207.5855 Y104.6748
G01 X207.5388 Y104.2568
G01 X207.5832 Y103.9251
G01 X207.6478 Y103.6880
G01 X207.6897 Y103.4137
G01 X207.7376 Y102.7742
G01 X207.1903 Y100.7610
G01 X206.5233 Y98.7538
G01 X206.3676 Y98.5023
G01 X206.2191 Y98.1466
G01 X205.7448 Y96.6173
G01 X205.7077 Y96.3442
G01 X205.7736 Y96.0352
G01 X206.1712 Y95.1658
G01 X206.1460 Y93.9466
G01 X205.9221 Y93.6975
G01 X205.8143 Y93.0484
G01 X205.6382 Y92.0795
G01 X205.2778 Y91.4628
G01 X205.6562 Y90.8723
G01 X205.7436 Y90.0616
G01 X206.2203 Y89.8771
G01 X206.2730 Y89.6125
G01 X205.1448 Y88.9083
G01 X204.5197 Y88.7837
G01 X204.5424 Y88.2915
G01 X206.3460 Y88.4783
G01 X207.7137 Y88.4160
G01 X209.1808 Y88.1166
G01 X210.5113 Y87.8316
G01 X211.7041 Y87.7071
G01 X214.7880 Y87.6939
G01 X220.0084 Y87.7286
G01 X221.3138 Y87.6843
G01 X222.4204 Y87.4843
G01 X223.7341 Y87.4903
G01 X224.7413 Y87.6136
G00 Z2.0000


;No. 37: Engraving 65
G00 X219.2874 Y96.7191 Z2.0000
G00 Z0.5000
G01 Z-2.0000 F180
G01 X219.7653 Y93.5873 F1200
G01 X219.8539 Y89.3837
G01 X220.0084 Y87.7286
G00 Z2.0000


;No. 38: Engraving 64
G00 X182.3914 Y162.4727 Z2.0000
G00 Z0.5000
G01 Z-2.0000 F180
G01 X182.4561 Y162.1781 F1200
G01 X182.7255 Y162.1386
G01 X183.1028 Y162.0691
G01 X183.3627 Y161.9398
G01 X183.5818 Y161.7015
G01 X183.8705 Y161.3422
G01 X184.1088 Y161.2332
G01 X184.4082 Y160.9542
G01 X184.7818 Y160.7841
G01 X184.8261 Y160.6296
G01 X184.5543 Y160.3961
G01 X184.4429 Y160.2548
G01 X184.6166 Y160.1757
G01 X185.4573 Y160.1793
G01 X185.9782 Y160.0356
G01 X186.3579 Y159.6392
G01 X186.5615 Y158.9494
G01 X186.6920 Y158.8404
G01 X187.5771 Y159.1386
G01 X187.9339 Y159.1146
G01 X188.6429 Y158.8344
G01 X190.5483 Y158.3218
G01 X190.8370 Y158.3338
G01 X191.0992 Y158.5314
G01 X191.2861 Y158.5541
G01 X191.3687 Y158.3733
G01 X191.2801 Y158.1733
G01 X191.1831 Y158.0476
G01 X190.6873 Y157.3338
G01 X190.5675 Y156.9362
G01 X190.6453 Y156.5458
G01 X191.4154 Y155.6487
G01 X192.1064 Y155.2835
G01 X192.7962 Y155.1002
G01 X193.3244 Y155.0332
G01 X194.0813 Y155.0942
G01 X194.6873 Y154.9661
G01 X195.5268 Y154.1182
G01 X196.7831 Y153.2212
G01 X196.9639 Y152.7876
G01 X196.8897 Y151.6415
G01 X197.0059 Y151.0739
G01 X197.2789 Y150.7505
G01 X198.0813 Y150.0798
G01 X198.5172 Y149.8966
G01 X199.1424 Y149.9577
G01 X199.5125 Y150.0978
G01 X200.0598 Y149.0786
G01 X200.3340 Y148.6822
G01 X200.5927 Y148.3780
G01 X201.2418 Y148.0176
G01 X202.0765 Y147.7002
G01 X202.7807 Y147.4810
G01 X203.1376 Y147.3948
G01 X203.3508 Y147.2726
G01 X203.6250 Y147.0104
G01 X203.7316 Y146.7912
G01 X204.0646 Y145.3397
G01 X204.1759 Y145.0655
G01 X204.4502 Y144.7229
G01 X204.6346 Y144.4056
G01 X204.8945 Y144.1193
G01 X205.1352 Y143.9421
G01 X205.8873 Y143.5708
G01 X206.2526 Y143.3624
G01 X206.5400 Y143.1193
G01 X206.7855 Y142.8020
G01 X207.1101 Y142.3193
G01 X207.7460 Y141.5517
G01 X208.8862 Y140.0439
G01 X209.1592 Y139.6415
G01 X209.7939 Y138.8055
G01 X210.3365 Y137.9277
G01 X210.5916 Y137.6283
G01 X211.5556 Y136.7193
G01 X212.4778 Y135.5971
G01 X212.9928 Y134.8714
G01 X213.3077 Y134.3468
G01 X213.5125 Y133.8522
G01 X213.6191 Y133.3768
G01 X213.6419 Y132.9492
G01 X213.5449 Y132.5839
G01 X213.4107 Y132.3336
G01 X213.2479 Y132.1444
G01 X212.9844 Y131.9804
G01 X212.1401 Y131.5648
G01 X211.8478 Y131.3696
G01 X211.7413 Y131.1133
G01 X211.7281 Y130.7468
G01 X211.7413 Y130.5887
G01 X211.8011 Y130.1552
G01 X211.9269 Y129.8510
G01 X212.0478 Y129.6857
G01 X212.2790 Y129.6067
G01 X212.5293 Y129.5767
G01 X213.0023 Y129.5887
G01 X213.5125 Y129.5576
G01 X213.9149 Y129.4606
G01 X214.2167 Y129.3504
G01 X215.0562 Y128.8139
G01 X215.6958 Y128.2773
G01 X216.3078 Y127.7037
G01 X216.8778 Y127.0450
G01 X217.3090 Y126.4414
G01 X217.6886 Y125.8067
G01 X217.9617 Y125.1779
G01 X218.1892 Y124.5312
G01 X218.2263 Y123.9156
G01 X218.1988 Y123.4701
G01 X218.1006 Y122.9216
G01 X217.9904 Y122.4821
G01 X217.7856 Y122.1156
G01 X217.5401 Y121.8845
G01 X217.2395 Y121.7192
G01 X216.8407 Y121.5731
G01 X216.5712 Y121.3288
G01 X216.2563 Y120.8773
G01 X216.1030 Y120.3959
G01 X216.0060 Y119.9623
G01 X215.9916 Y119.2485
G01 X215.9042 Y118.7851
G01 X215.7652 Y118.4557
G01 X215.7413 Y118.0473
G01 X215.7928 Y117.2366
G01 X215.9413 Y116.5156
G01 X216.0012 Y115.9551
G01 X216.2335 Y115.4857
G01 X216.5161 Y114.6365
G01 X216.6407 Y114.4054
G01 X216.9473 Y113.3743
G01 X217.3413 Y112.2832
G01 X217.5964 Y111.6904
G01 X217.8922 Y111.0748
G01 X218.0131 Y110.6233
G01 X218.0778 Y109.9407
G01 X218.0742 Y109.1718
G01 X218.1245 Y107.9395
G01 X218.1748 Y107.4090
G01 X218.2587 Y107.0796
G01 X218.7461 Y105.8161
G01 X219.3533 Y103.7251
G01 X219.3341 Y103.2305
G01 X219.0982 Y102.0844
G01 X219.1353 Y101.1011
G01 X219.3533 Y98.0329
G01 X219.2982 Y97.0137
G01 X219.2874 Y96.7191
G01 X219.1904 Y96.2832
G01 X218.3796 Y95.0448
G01 X217.7485 Y93.8245
G01 X216.7341 Y91.4340
G01 X214.7880 Y87.6939
G01 X214.1844 Y85.8160
G01 X214.1293 Y84.9502
G01 X214.2407 Y83.8699
G01 X216.0107 Y77.3010
G01 X216.2155 Y75.0806
G01 X216.5676 Y73.9405
G01 X217.6563 Y71.2028
G01 X218.2682 Y68.7812
G01 X218.3569 Y67.9692
G01 X218.3617 Y67.4267
G01 X217.9904 Y65.3896
G01 X217.3880 Y60.6866
G01 X217.6611 Y57.8817
G01 X217.4479 Y56.4781
G01 X217.3928 Y55.1728
G01 X217.4527 Y53.0446
G01 X217.6239 Y52.4290
G01 X218.0048 Y51.8314
G01 X218.9365 Y50.6901
G01 X219.3209 Y49.6170
G01 X219.1078 Y49.1176
G01 X218.9389 Y46.0577
G01 X218.9676 Y45.4973
G01 X219.4575 Y45.2218
G01 X220.5605 Y45.1152
G01 X220.9162 Y43.9763
G01 X221.1892 Y43.5547
G01 X222.2874 Y43.1835
G01 X222.4826 Y42.7188
G01 X222.7796 Y38.2062
G01 X222.7246 Y37.5475
G00 Z2.0000


;No. 39: Engraving 40
G00 X210.0598 Y3.2611 Z2.0000
G00 Z0.5000
G01 Z-2.0000 F180
G01 X209.6634 Y3.3090 F1200
G01 X209.3975 Y3.4815
G01 X209.1508 Y4.0539
G01 X208.7688 Y5.2407
G01 X206.9544 Y5.8611
G01 X205.6933 Y5.8048
G01 X204.8849 Y5.5785
G01 X204.0753 Y5.6910
G01 X203.4921 Y6.2000
G01 X202.7592 Y7.4791
G01 X201.4562 Y9.7066
G01 X200.9855 Y10.9294
G01 X199.9891 Y11.4192
G01 X199.0107 Y11.0432
G01 X198.1268 Y10.4216
G01 X197.1675 Y10.0456
G01 X196.3208 Y10.1019
G01 X194.6837 Y11.1174
G01 X193.4226 Y11.8516
G01 X192.6334 Y11.7390
G01 X190.9591 Y11.2875
G01 X190.2441 Y11.3629
G01 X189.4166 Y11.9462
G01 X188.3627 Y13.5450
G01 X186.9890 Y15.2755
G01 X184.2429 Y16.8743
G01 X182.8513 Y18.2288
G01 X179.0321 Y21.5402
G01 X176.0309 Y22.9570
G01 X174.5447 Y23.4456
G01 X173.3782 Y23.8600
G01 X172.9267 Y24.8181
G01 X171.9866 Y27.9043
G01 X170.6129 Y29.2960
G01 X168.1111 Y29.8421
G01 X166.4177 Y29.9547
G01 X160.3410 Y33.1906
G01 X157.7458 Y34.9020
G01 X155.7505 Y36.1439
G01 X154.5014 Y37.6086
G01 X154.0020 Y40.0948
G01 X153.4942 Y41.7691
G01 X152.5338 Y42.1260
G01 X150.6152 Y43.3308
G01 X149.7876 Y44.5535
G01 X148.9038 Y45.4182
G01 X147.8307 Y45.5499
G01 X145.5361 Y45.2122
G01 X144.3696 Y45.3248
G01 X143.1936 Y45.6434
G01 X141.9996 Y46.3212
G01 X141.4726 Y47.1871
G01 X140.3624 Y48.0901
G01 X139.3097 Y49.4637
G01 X138.8007 Y52.0398
G01 X138.1924 Y53.1727
G01 X137.7289 Y53.7332
G01 X137.2211 Y55.0686
G01 X136.8822 Y56.6877
G01 X136.6379 Y58.7380
G01 X136.0355 Y59.8291
G01 X134.9828 Y61.1644
G01 X134.7468 Y62.0770
G01 X134.9540 Y63.1021
G01 X135.6223 Y64.1836
G01 X136.4127 Y65.1620
G01 X136.8259 Y65.7548
G01 X136.7600 Y66.3465
G01 X136.4127 Y66.8926
G01 X135.6882 Y67.6267
G01 X134.6438 Y68.6231
G01 X134.1265 Y70.1561
G01 X133.4869 Y72.2447
G01 X132.7157 Y73.7214
G01 X131.7983 Y74.1285
G01 X129.0893 Y74.5513
G01 X127.1707 Y75.1441
G01 X125.6378 Y75.5872
G01 X123.4270 Y77.5250
G01 X122.7971 Y78.7753
G01 X122.6845 Y79.7250
G01 X122.8150 Y82.6412
G01 X122.9120 Y84.4975
G01 X123.1671 Y85.4484
G01 X124.4701 Y87.6041
G01 X125.8007 Y89.8388
G01 X126.6785 Y92.4724
G01 X126.1731 Y95.1861
G01 X125.6222 Y98.5191
G01 X124.8893 Y100.2317
G01 X123.5348 Y103.9934
G01 X122.5743 Y106.3826
G01 X121.4653 Y108.1694
G01 X120.2989 Y110.9910
G01 X119.8653 Y113.1934
G01 X119.5276 Y114.2844
G01 X118.7743 Y116.0521
G01 X118.4366 Y118.2162
G00 Z2.0000


;No. 40: Engraving 42
G00 X69.2734 Y92.2388 Z2.0000
G00 Z0.5000
G01 Z-2.0000 F180
G01 X68.7082 Y91.0065 F1200
G01 X67.9525 Y90.2508
G01 X67.6794 Y89.6711
G01 X67.7070 Y89.1107
G01 X68.0231 Y88.1825
G01 X68.0087 Y87.5969
G01 X68.1249 Y87.1765
G01 X69.0519 Y86.4388
G01 X69.5525 Y85.9082
G01 X71.0399 Y85.1274
G01 X73.5944 Y82.8220
G01 X74.4794 Y82.2172
G01 X75.2591 Y81.8998
G01 X76.1118 Y81.7537
G01 X76.7836 Y81.4364
G01 X77.9753 Y80.0459
G01 X78.6663 Y78.8986
G01 X79.0459 Y76.8136
G01 X79.0088 Y76.3860
G01 X78.8831 Y76.0387
G01 X78.5262 Y75.5812
G01 X78.0028 Y75.1058
G01 X77.7058 Y74.5932
G01 X77.5250 Y73.6411
G01 X77.1310 Y72.8734
G01 X76.9322 Y72.2878
G01 X77.0890 Y71.5010
G01 X77.5070 Y70.7441
G01 X77.6831 Y69.7632
G01 X78.0819 Y68.5920
G01 X78.5453 Y66.1093
G01 X78.6890 Y65.6938
G01 X79.5142 Y64.5716
G01 X79.6340 Y63.7788
G01 X79.3142 Y61.7416
G01 X78.6244 Y59.9189
G01 X78.6423 Y59.4913
G01 X78.7765 Y59.2171
G01 X79.8519 Y57.7165
G01 X80.1669 Y56.6374
G01 X80.4459 Y56.1249
G01 X81.2986 Y55.3201
G01 X82.3226 Y53.9907
G01 X82.6292 Y53.7895
G01 X83.0076 Y53.2338
G01 X83.2172 Y52.6051
G01 X83.5382 Y52.2817
G01 X84.1669 Y52.4123
G01 X84.6244 Y52.9931
G01 X84.8100 Y53.4985
G01 X85.0675 Y54.0578
G01 X85.2939 Y54.3129
G01 X85.7993 Y56.0087
G01 X86.0496 Y56.4781
G01 X86.7729 Y57.0207
G01 X87.1813 Y56.0027
G01 X87.6077 Y55.3201
G01 X88.6508 Y54.2218
G01 X90.2352 Y52.8194
G01 X92.6688 Y51.3739
G01 X94.6676 Y50.5260
G01 X96.3550 Y49.5320
G01 X97.0915 Y48.9703
G01 X98.1993 Y47.8601
G01 X100.3047 Y46.0733
G01 X100.7766 Y45.3667
G01 X101.1251 Y44.4026
G01 X101.4856 Y43.7439
G01 X102.3814 Y42.6577
G01 X103.4425 Y41.7308
G01 X104.1934 Y41.3164
G01 X105.9778 Y40.5415
G01 X108.1431 Y40.0242
G01 X110.1180 Y39.6876
G01 X110.6832 Y39.4984
G01 X112.0270 Y38.5787
G01 X112.3886 Y38.1751
G01 X112.6617 Y37.5906
G01 X112.9539 Y36.4924
G01 X113.3072 Y36.3212
G01 X113.5850 Y36.4014
G01 X114.0952 Y36.7978
G01 X114.7575 Y37.6757
G01 X115.1791 Y37.9739
G01 X115.3791 Y37.9930
G01 X115.7312 Y37.8337
G01 X115.9252 Y37.4804
G01 X115.9575 Y37.0601
G01 X115.8425 Y36.4194
G01 X115.4665 Y35.5044
G01 X115.3874 Y35.0649
G01 X115.5276 Y34.7116
G01 X115.8473 Y34.6074
G01 X116.1815 Y34.7176
G01 X116.6809 Y35.1140
G01 X118.0018 Y36.6697
G01 X118.4665 Y36.7846
G01 X118.6473 Y36.6697
G01 X118.7671 Y36.2601
G01 X118.4521 Y34.8888
G01 X117.7515 Y33.2960
G01 X117.4557 Y32.2481
G01 X116.8485 Y30.9606
G01 X116.6952 Y30.3870
G01 X116.7276 Y29.1918
G01 X116.9455 Y28.5822
G01 X117.2186 Y28.1798
G01 X117.8078 Y27.7103
G01 X122.2677 Y25.2097
G01 X124.2510 Y24.2947
G01 X124.8258 Y24.1426
G01 X125.2522 Y24.1486
G01 X125.7252 Y24.2648
G01 X126.3504 Y24.5882
G01 X126.6713 Y24.8864
G01 X126.8845 Y25.3678
G01 X126.7959 Y25.8624
G01 X126.5133 Y26.1606
G01 X125.1552 Y26.6792
G01 X123.0833 Y27.9235
G01 X122.5683 Y28.4780
G01 X122.4941 Y29.1008
G01 X122.7396 Y29.4792
G01 X123.1528 Y29.6924
G01 X125.6282 Y30.4972
G01 X127.4031 Y31.4121
G01 X128.5851 Y32.1810
G01 X128.8582 Y32.5223
G01 X129.0402 Y32.9068
G01 X129.0582 Y33.5954
G01 X128.8450 Y34.1439
G01 X128.0666 Y35.3092
G01 X127.8210 Y35.9128
G01 X127.6725 Y36.7727
G01 X127.7324 Y37.1942
G01 X127.8222 Y37.4457
G01 X128.0199 Y37.6517
G01 X128.4187 Y37.9116
G01 X128.7708 Y37.3379
G01 X129.2199 Y36.5475
G01 X129.5827 Y35.8038
G01 X129.9300 Y35.2062
G01 X130.1720 Y34.8816
G01 X130.5504 Y34.4553
G01 X130.8881 Y34.1152
G01 X131.2402 Y33.7882
G01 X131.6019 Y33.3798
G01 X131.7636 Y33.1822
G01 X131.8989 Y32.9726
G01 X132.0271 Y32.6074
G01 X132.0845 Y32.1918
G01 X132.0498 Y31.7870
G01 X131.9456 Y31.0038
G01 X131.9672 Y30.7750
G01 X132.0426 Y30.5666
G01 X132.1073 Y30.4373
G01 X132.2175 Y30.3247
G01 X132.5133 Y30.1463
G01 X132.6893 Y30.0984
G01 X132.8810 Y30.0696
G01 X133.0881 Y30.0648
G01 X135.0414 Y30.1798
G01 X135.4750 Y30.1762
G01 X135.8774 Y30.0984
G01 X136.7325 Y29.8672
G01 X137.6451 Y29.5918
G01 X138.4031 Y29.3870
G01 X138.7600 Y29.1918
G01 X138.9972 Y28.9355
G01 X139.1121 Y28.5451
G01 X139.1732 Y28.1858
G01 X139.0798 Y27.5642
G01 X138.8666 Y26.9115
G01 X138.3469 Y25.5941
G01 X137.9540 Y24.3917
G01 X137.5780 Y23.5450
G01 X137.0546 Y22.7091
G01 X136.2941 Y21.7271
G01 X135.7744 Y21.2516
G01 X134.7313 Y20.4217
G01 X133.8834 Y19.8552
G01 X133.3600 Y19.5869
G01 X133.0905 Y19.3366
G01 X132.8223 Y18.8732
G01 X132.6414 Y18.4276
G01 X132.4738 Y17.4456
G01 X131.7839 Y14.4827
G01 X131.5109 Y13.6348
G01 X131.2881 Y13.0671
G01 X131.0330 Y12.7498
G01 X130.6151 Y12.4084
G01 X130.2905 Y12.2013
G01 X128.1911 Y11.6468
G01 X127.5516 Y11.4084
G01 X126.8103 Y11.3055
G01 X126.1420 Y11.2923
G01 X124.9276 Y11.4204
G01 X124.5204 Y11.3593
G01 X124.0749 Y11.1653
G01 X123.5875 Y10.8108
G01 X123.0366 Y10.5306
G01 X122.5312 Y10.3234
G01 X121.8450 Y10.1030
G01 X121.0438 Y10.0180
G01 X120.1947 Y10.0492
G01 X119.3647 Y10.2312
G01 X118.5958 Y10.3354
G01 X118.0258 Y10.3414
G01 X117.5803 Y10.2683
G01 X117.2928 Y10.0791
G01 X117.1491 Y9.9689
G01 X117.0749 Y9.7617
G01 Y9.4935
G01 X117.1958 Y9.1030
G01 X117.3994 Y8.8839
G01 X117.7563 Y8.6587
G01 X121.4653 Y7.7617
G01 X123.6210 Y7.1150
G01 X126.3180 Y6.1342
G01 X127.7552 Y5.5174
G01 X128.9564 Y5.0539
G01 X129.7169 Y4.5892
G01 X130.0558 Y4.2934
G01 X130.2294 Y4.0312
G01 X130.3384 Y3.7569
G01 X130.3875 Y3.2839
G01 X130.4007 Y1.3198
G01 X130.4163 Y0.9114
G01 X130.5025 Y0.6252
G01 X130.6857 Y0.3988
G01 X131.0091 Y0.2012
G01 X131.7564 Y0.0000
G00 Z2.0000


;No. 41: Engraving 2
G00 X61.7321 Y101.0161 Z2.0000
G00 Z0.5000
G01 Z-2.0000 F180
G01 X61.7788 Y101.6077 F1200
G01 X62.1548 Y102.5778
G01 X62.0937 Y103.1335
G01 X61.7177 Y103.8461
G01 X61.6434 Y104.2065
G01 X61.7836 Y104.5060
G01 X62.0985 Y104.7431
G01 X62.5716 Y104.9443
G01 X63.2626 Y104.9994
G01 X63.6099 Y104.7742
G01 X63.9345 Y104.1335
G01 X64.7321 Y102.9562
G01 X65.0842 Y101.7670
G01 X65.6171 Y100.7730
G01 X65.8998 Y99.8448
G01 X66.0291 Y99.2353
G01 X66.0578 Y98.2293
G01 X66.3034 Y97.6676
G01 X67.0543 Y96.6556
G01 X67.9620 Y95.8197
G01 X68.1848 Y95.1239
G01 X68.8159 Y94.4101
G01 X68.9321 Y94.1478
G01 X68.9357 Y93.7394
G01 X68.8016 Y92.9646
G01 X68.8567 Y92.6233
G01 X69.0890 Y92.3119
G01 X69.2734 Y92.2388
G01 X70.7956 Y92.4712
G01 X71.0782 Y92.1837
G01 X71.4722 Y91.0556
G01 X72.4722 Y89.3298
G01 X73.0016 Y88.5370
G01 X73.2699 Y88.3107
G01 X74.8052 Y87.3657
G01 X75.6759 Y87.1214
G01 X77.1178 Y86.4807
G01 X78.8519 Y85.5597
G01 X79.5753 Y85.2304
G01 X79.5609 Y86.8412
G01 X79.4172 Y87.7981
G01 X79.2088 Y88.2987
G01 X78.3417 Y89.9825
G01 X77.2100 Y91.1346
G01 X76.6495 Y92.3059
G01 X75.9357 Y93.1119
G01 X75.7824 Y93.5502
G01 X75.8759 Y95.3442
G01 X75.5788 Y97.5885
G01 X75.7034 Y98.5395
G01 X75.6208 Y98.9490
G01 X74.9022 Y100.0281
G01 X74.6699 Y100.6808
G01 X74.7765 Y101.3095
G01 X75.3561 Y101.8760
G01 X75.6112 Y102.3215
G01 X75.9585 Y103.9012
G01 X75.9214 Y104.3838
G01 X75.6579 Y105.2616
G01 X75.1896 Y106.3539
G01 X75.1429 Y106.7012
G01 X75.3010 Y107.0545
G01 X75.6579 Y107.2748
G01 X76.9513 Y107.4209
G01 X77.5166 Y107.7994
G01 X77.7345 Y108.0928
G01 X77.8124 Y108.4700
G01 X77.1549 Y109.8425
G01 X76.8819 Y110.0748
G01 X75.7453 Y110.1838
G01 X75.3657 Y110.3671
G01 X75.0687 Y110.6725
G01 X74.9250 Y111.0509
G01 X75.1429 Y111.4832
G01 X76.0651 Y112.0701
G01 X77.1908 Y113.0042
G01 X77.7429 Y113.1838
G01 X77.6340 Y113.4461
G01 X77.0435 Y113.6617
G01 X76.1944 Y113.6270
G01 X75.9597 Y113.8198
G01 X75.9741 Y114.0832
G01 X76.3669 Y114.9120
G01 X76.2459 Y115.1982
G01 X74.5226 Y115.9491
G01 X74.1657 Y116.0521
G01 X71.7082 Y116.0833
G01 X70.7345 Y116.1875
G01 X69.3585 Y115.9731
G01 X68.7561 Y116.0042
G01 X68.2590 Y116.1683
G01 X67.9022 Y116.4186
G01 X67.1560 Y117.1144
G01 X65.8207 Y118.0905
G01 X63.1369 Y119.4988
G01 X61.8159 Y120.0845
G01 X61.3896 Y120.4809
G01 X60.8614 Y121.2677
G01 X59.8734 Y122.1767
G01 X59.5261 Y123.5803
G01 X59.5213 Y124.2629
G01 X59.3452 Y124.8486
G01 X59.0350 Y125.1300
G01 X57.5141 Y125.7887
G01 X56.9632 Y126.3252
G01 X56.5692 Y126.8438
G01 X55.8829 Y128.1791
G01 X55.7344 Y129.0211
G01 X55.7799 Y129.7959
G01 X56.0302 Y130.2785
G01 X56.6015 Y130.8211
G01 X57.8997 Y131.0522
G01 X59.0758 Y131.5839
G01 X59.6279 Y131.5289
G01 X60.5644 Y131.0282
G01 X62.1033 Y130.7540
G01 X62.7429 Y130.7420
G01 X63.4159 Y131.0462
G01 X67.2255 Y133.6151
G01 X67.6567 Y134.0055
G01 X68.1022 Y134.6881
G01 X68.4351 Y135.0235
G01 X69.1082 Y135.4630
G01 X69.5106 Y136.0187
G01 X70.0112 Y137.8427
G01 X70.2112 Y138.2750
G01 X70.9525 Y139.1421
G01 X71.2674 Y139.6415
G01 X71.3465 Y140.0451
G01 X71.1237 Y140.9840
G01 X70.6088 Y142.2103
G01 X70.5489 Y143.0211
G01 X70.4243 Y143.5397
G01 X69.8962 Y144.5529
G01 X69.6459 Y144.8942
G01 X69.4291 Y145.0846
G01 X69.0794 Y145.1086
G01 X68.9117 Y145.2894
G01 X69.0387 Y145.6259
G01 X69.0758 Y146.2726
G01 X68.9034 Y146.8283
G01 X68.4998 Y147.4870
G01 X68.2363 Y147.7924
G01 X67.9297 Y147.8954
G01 X67.1189 Y147.8655
G01 X66.2063 Y148.1828
G01 X65.6962 Y148.5792
G01 X65.3393 Y149.0547
G01 X65.1393 Y149.4391
G01 X65.0602 Y150.0068
G01 X65.2051 Y150.4703
G01 X65.5752 Y151.1409
G01 X66.7620 Y152.4535
G01 X67.0770 Y153.5326
G01 X67.2854 Y153.9529
G01 X67.6052 Y154.2092
G01 X68.3800 Y154.5757
G01 X69.1632 Y155.3685
G01 X71.6387 Y156.9182
G01 X71.8471 Y157.1505
G01 X71.9908 Y157.5350
G01 X71.9309 Y158.4068
G01 X71.7082 Y158.8895
G01 X70.6794 Y159.9254
G01 X70.1788 Y160.8224
G01 X70.0255 Y161.3901
G01 X70.0351 Y161.7625
G01 X70.2435 Y162.9087
G01 X70.1273 Y163.3003
G01 X69.5573 Y163.9458
G01 X68.8890 Y164.4895
G01 X67.5824 Y165.2452
G01 X66.8734 Y165.9230
G01 X66.2566 Y166.2284
G01 X63.8279 Y166.5027
G01 X63.4710 Y166.6057
G01 X62.9836 Y166.9362
G01 X62.7057 Y167.2716
G01 X62.4650 Y167.8632
G01 X62.5297 Y168.7171
G01 X62.8866 Y169.8524
G01 X63.6614 Y171.1027
G01 X66.1968 Y171.6081
G01 X66.7932 Y171.8440
G01 X67.2914 Y172.2033
G01 X67.6638 Y172.6644
G01 X67.8459 Y173.1949
G01 X67.7441 Y174.0728
G01 X67.4387 Y175.0069
G01 X67.2159 Y175.6225
G01 X66.9608 Y177.2644
G01 X66.6315 Y179.0177
G01 X66.6566 Y179.4153
G01 X66.7441 Y179.8261
G01 X66.9309 Y180.2237
G01 X67.1417 Y180.4597
G01 X67.4279 Y180.5842
G01 X67.8375 Y180.6836
G01 X68.3477
G01 X69.0686 Y180.3100
G01 X70.3501 Y179.6273
G01 X71.9034 Y179.2788
G01 X73.1728 Y178.5195
G01 X74.0675 Y177.6489
G01 X74.6507 Y176.9662
G01 X75.1741 Y176.0584
G01 X75.7262 Y174.8476
G01 X75.9441 Y173.8536
G01 X76.1573 Y173.2189
G01 X76.4735 Y172.7063
G01 X77.0507 Y172.0548
G01 X77.4555 Y171.6093
G01 X77.7705 Y171.1698
G01 X78.0579 Y170.7243
G01 X78.2819 Y170.1770
G01 X78.7717 Y169.4249
G01 X79.2016 Y168.3494
G01 X79.6531 Y167.3566
G01 X79.9130 Y166.7219
G01 X80.1717 Y166.3111
G01 X80.6567 Y165.8512
G01 X81.4400 Y165.3290
G01 X82.0495 Y165.0428
G01 X82.6100 Y164.9470
G01 X83.2220 Y165.0081
G01 X83.8340 Y165.2823
G01 X84.5298 Y165.6967
G01 X85.0807 Y165.8919
G01 X85.5765 Y165.9662
G01 X86.2304 Y165.9901
G01 X86.8112 Y166.1123
G01 X87.6436 Y166.2739
G01 X88.5394 Y166.4967
G01 X89.3729 Y166.7278
G01 X90.2819 Y166.7039
G01 X91.0101 Y166.4835
G01 X92.4185 Y165.8141
G01 X93.7358 Y165.2165
G01 X95.1287 Y164.2835
G01 X96.2484 Y163.7254
G01 X98.9838 Y161.9961
G01 X100.5538 Y160.9757
G01 X101.7359 Y160.1817
G01 X102.7191 Y159.4440
G01 X104.4413 Y158.1793
G01 X105.3000 Y157.4080
G01 X105.8712 Y156.9110
G01 X106.7982 Y156.0763
G01 X107.7730 Y154.8224
G01 X109.2533 Y153.1194
G01 X109.7012 Y152.6463
G01 X110.3443 Y152.2571
G01 X111.1060 Y151.6882
G01 X111.9383 Y151.1170
G01 X112.4485 Y150.5697
G01 X112.8341 Y150.1218
G01 X113.2820 Y149.2894
G01 X113.4317 Y148.1397
G01 X113.4880 Y147.1457
G01 X113.4270 Y146.2547
G01 X113.4557 Y145.0247
G01 X113.3814 Y144.1421
G01 X113.3563 Y143.6942
G01 X113.4186 Y143.3217
G01 X113.6174 Y142.8858
G01 X113.8449 Y142.3505
G01 X114.4557 Y142.0079
G01 X115.1048 Y141.4475
G01 X115.5779 Y140.8738
G01 X116.2785 Y139.5049
G01 X116.7743 Y138.0498
G01 X117.1731 Y137.0798
G01 X117.6210 Y136.2091
G01 X118.1551 Y135.4007
G01 X118.5791 Y134.6810
G01 X119.0677 Y134.0175
G01 X121.8857 Y132.7528
G01 X122.9671 Y132.1935
G01 X123.8869 Y131.8450
G01 X124.7097 Y131.3815
G01 X125.5767 Y130.4247
G01 X127.0582 Y126.9839
G01 X127.7923 Y125.3001
G01 X127.9636 Y124.8797
G01 X128.5947 Y124.0067
G01 X129.2845 Y123.1528
G01 X130.1791 Y122.3959
G01 X130.5265 Y122.0845
G01 X131.0007 Y121.7384
G01 X131.9324 Y120.8294
G03 X133.1097 Y120.6581 I1.1123 J3.5140
G01 X133.6199 Y120.4629
G01 X134.2917 Y120.0785
G01 X134.8666 Y119.5851
G01 X135.3756 Y119.3000
G01 X136.8678 Y118.5911
G01 X137.9001 Y118.1432
G01 X138.6331 Y117.5719
G01 X139.1061 Y117.4593
G01 X139.6654 Y117.5336
G01 X139.9744 Y117.6390
G01 X140.4487 Y117.7204
G01 X140.9085 Y117.6210
G01 X141.4678 Y117.4342
G01 X141.8906 Y117.2857
G01 X142.2020 Y117.3228
G01 X142.4750 Y117.5467
G01 X142.5373 Y117.9815
G01 X142.5121 Y118.6533
G01 X142.3888 Y119.3994
G01 X142.4630 Y119.9336
G01 X142.5121 Y120.1827
G01 X142.6738 Y120.4318
G01 X143.0223 Y120.5935
G01 X143.4702 Y120.6174
G01 X143.8187 Y120.4689
G01 X144.1169 Y120.2078
G01 X144.4894 Y119.3863
G01 X144.6643 Y119.0258
G01 X145.0738 Y118.5539
G01 X145.5217 Y118.1683
G01 X145.8571 Y117.8952
G01 X146.2511 Y117.5587
G01 X146.8439 Y117.0222
G01 X147.4978 Y116.5036
G01 X148.3828 Y115.9060
G01 X149.0319 Y115.3874
G01 X149.6499 Y114.8198
G01 X149.7733 Y114.7120
G01 X149.9349 Y114.5132
G01 X150.0571 Y114.1922
G01 X150.0942 Y113.7347
G01 X149.9852 Y113.5431
G01 X149.7493 Y113.2581
G01 X149.1433 Y112.8078
G01 X148.2200 Y111.9395
G01 X147.9960 Y111.6162
G01 X147.9709 Y111.2437
G01 X148.0954 Y110.6593
G01 X148.2319 Y109.9754
G01 X148.4810 Y109.1671
G01 X148.7493 Y107.4329
G01 X148.9816 Y105.7491
G01 X149.2272 Y104.7646
G01 X149.4008 Y104.1814
G01 X149.5002 Y102.7515
G01 X149.7182 Y102.1754
G01 X149.8343 Y101.9982
G01 X150.1266 Y101.7790
G01 X152.4344 Y100.5634
G01 X153.6403 Y99.8293
G01 X154.3110 Y99.3323
G01 X154.7014 Y99.1251
G01 X155.0823 Y98.8844
G01 X155.4559 Y98.5610
G01 X156.1014 Y97.5155
G01 X157.2212 Y96.1370
G01 X157.7805 Y95.5394
G01 X158.1266 Y95.2029
G01 X158.6188 Y95.1418
G01 X159.0308 Y95.1239
G01 X159.8835 Y95.2161
G01 X161.4416 Y95.1730
G01 X161.9458 Y94.8807
G01 X162.3194 Y94.5083
G01 X162.7997 Y93.9957
G01 X163.2632 Y93.8245
G01 X163.6871 Y93.8364
G01 X164.1099 Y93.9239
G01 X164.5697 Y94.0352
G01 X165.1542 Y94.2101
G01 X166.7578 Y94.5706
G01 X167.1925 Y94.6077
G01 X168.0764 Y94.3718
G01 X168.6548 Y94.5143
G01 X169.1458 Y94.5873
G01 X169.8668 Y94.8927
G01 X171.0476 Y95.4149
G01 X171.7973 Y95.8867
G01 X172.0824 Y96.0460
G01 X172.2512 Y96.3442
G01 X174.3171 Y98.0017
G01 X175.4357 Y98.7598
G01 X176.2752 Y99.4604
G01 X177.5219 Y100.6449
G01 X178.6692 Y101.6568
G02 X181.3914 Y104.2928 I27.4086 J-25.5816
G01 X182.0130 Y104.7527
G01 X182.5746 Y105.2497
G01 X183.1327 Y105.6604
G01 X183.4932 Y105.9467
G01 X183.7663 Y106.1527
G01 X184.0992
G01 X184.4992 Y106.0545
G01 X184.8740 Y105.8964
G01 X185.2261 Y105.6952
G01 X185.6800 Y105.5910
G01 X186.3950 Y105.5299
G01 X187.5531 Y105.3107
G01 X188.2549 Y105.1503
G01 X188.6154 Y105.0389
G01 X188.8765 Y104.9024
G01 X189.0884 Y104.7036
G01 X189.1759 Y104.3431
G01 X189.0693 Y103.3586
G01 X189.1292 Y103.1634
G01 X189.4214 Y102.8652
G01 X190.4058 Y102.1299
G01 X191.4753 Y101.4257
G01 X191.9100 Y101.2101
G01 X192.2585 Y101.0975
G01 X192.8178 Y101.0724
G02 X194.6681 Y101.1754 I2.3868 J-26.2063
G01 X194.9472 Y101.0341
G01 X195.2442 Y100.8389
G01 X195.4801 Y100.4005
G01 X195.7304 Y99.7047
G01 X196.1256 Y98.9838
G03 X197.1448 Y97.5790 I21.9015 J14.8173
G01 X197.4190 Y97.1430
G01 X197.6669 Y96.5838
G01 X197.8035 Y96.0867
G01 X197.7915 Y95.7263
G01 X197.8035 Y95.0796
G01 X197.7472 Y94.5813
G01 Y93.8855
G01 X197.8023 Y93.4532
G01 X198.0993 Y92.2999
G01 X198.2705 Y91.2879
G01 X198.4047 Y90.6891
G01 X199.0358 Y89.2364
G01 X199.3328 Y88.6891
G01 X199.5819 Y88.3789
G01 X200.0166 Y88.0927
G01 X200.4897 Y87.8687
G01 X201.1735 Y87.7190
G01 X201.6214 Y87.6939
G01 X202.1185 Y87.7190
G01 X203.5975 Y88.0556
G01 X204.5424 Y88.2915
G01 X206.3460 Y88.4783
G01 X207.7137 Y88.4160
G01 X209.1808 Y88.1166
G01 X210.5113 Y87.8316
G01 X211.7041 Y87.7071
G01 X214.7880 Y87.6939
G01 X220.0084 Y87.7286
G01 X221.3138 Y87.6843
G01 X222.4204 Y87.4843
G01 X223.7341 Y87.4903
G01 X224.7413 Y87.6136
G00 Z2.0000


;No. 42: Engraving 5
G00 X306.4735 Y130.6079 Z2.0000
G00 Z0.5000
G01 Z-2.0000 F180
G01 X305.9909 Y131.6510 F1200
G01 X305.7178 Y132.5959
G01 X305.4064 Y134.2558
G01 X305.3645 Y135.4019
G01 X305.4855 Y139.2151
G01 X305.4112 Y142.3505
G01 X305.6531 Y151.8918
G01 X305.5837 Y155.1553
G01 X305.7226 Y156.0092
G01 X305.8975 Y156.3937
G01 X306.4591 Y157.1625
G01 X306.8436 Y158.2116
G01 X307.5526 Y159.0356
G01 X307.6460 Y159.2979
G01 X307.6136 Y159.5961
G01 X307.3250 Y160.0715
G00 Z2.0000


;No. 43: Engraving 6
G00 X307.6963 Y160.0967 Z2.0000
G00 Z0.5000
G01 Z-2.0000 F180
G01 X307.8076 Y159.5542 F1200
G01 X307.8999 Y159.4751
G01 X308.0484 Y159.4871
G01 X308.2340 Y159.6691
G01 X308.7945 Y160.0176
G01 X309.3693 Y160.4931
G01 X309.5502 Y160.7063
G01 X309.6711 Y160.6392
G01 X309.7406 Y160.4751
G01 X309.6711 Y160.0667
G01 Y159.6080
G01 X309.4532 Y158.8955
G01 X309.4388 Y158.6631
G01 X309.5969 Y158.2535
G01 X309.6065 Y157.7302
G01 X309.5370 Y157.1074
G01 X309.5777 Y156.8260
G01 X309.8148 Y156.7002
G01 X309.9789 Y156.3446
G01 X310.1394 Y156.5829
G01 X310.6544 Y157.8272
G01 X311.4005 Y159.0907
G01 X312.1190 Y159.9745
G01 X313.0879 Y161.4272
G01 X314.0328 Y163.5135
G01 X314.5155 Y164.3003
G01 X316.1478 Y166.1973
G01 X316.3694 Y166.5698
G01 X316.5047 Y166.9722
G01 X316.5322 Y167.6249
G01 X316.2724 Y168.4979
G01 X315.9801 Y168.8883
G01 X315.4328 Y169.3207
G01 X312.8328 Y170.8955
G01 X310.7837 Y171.7734
G01 X309.1753 Y172.9698
G01 X307.4831 Y174.9459
G01 X307.0244 Y175.6225
G01 X306.3753 Y177.3495
G01 X305.5466 Y180.3998
G01 X305.6939 Y181.7363
G01 X305.6160 Y182.4321
G01 X305.2867 Y183.6944
G01 X305.3837 Y184.0980
G01 X306.0052 Y185.5184
G01 X306.1478 Y186.0633
G01 X306.9142 Y186.5435
G01 X307.1406 Y186.9040
G01 X307.2376 Y187.5124
G01 X314.2197 Y187.9950
G01 X315.8029 Y187.1172
G01 X323.3610 Y181.8525
G01 X324.1562 Y180.8585
G01 X324.4305 Y179.5399
G01 X324.6269 Y178.0105
G01 X324.7287 Y175.6608
G01 X326.3191 Y168.6740
G01 X328.5575 Y158.5026
G01 X328.6760 Y155.8931
G01 X329.0617 Y155.5948
G01 X329.2832 Y155.2032
G01 X329.5108 Y154.8691
G01 X329.7335 Y154.0811
G01 X329.8904 Y153.7098
G01 X329.9227 Y153.4535
G01 X329.9742 Y152.3793
G01 X330.0760 Y151.8188
G01 X330.4700 Y150.1158
G01 X330.8413 Y147.8343
G01 X330.9299 Y147.4870
G01 X331.4665 Y143.7110
G01 X331.6437 Y142.1373
G01 X331.8569 Y139.9097
G01 X331.9814 Y139.1169
G01 X332.3335 Y136.4331
G01 X332.4820 Y134.9995
G01 X332.6210 Y134.0474
G01 X333.1587 Y132.3648
G01 X333.3958 Y131.8881
G01 X333.6593 Y131.4857
G01 X334.1096 Y130.1504
G01 X334.6102 Y129.0642
G01 X335.3000 Y127.6546
G01 X336.0329 Y126.4282
G01 X336.9695 Y124.7456
G00 Z2.0000


;No. 44: Engraving 83
G00 X345.8833 Y131.5145 Z2.0000
G00 Z0.5000
G01 Z-2.0000 F180
G01 X345.9983 Y131.7217 F1200
G01 X346.3911 Y132.0606
G01 X346.6222 Y132.1097
G01 X346.9120 Y132.0905
G01 X347.1144 Y132.0702
G01 X347.3947 Y132.0905
G01 X347.6019 Y132.1636
G01 X347.8426 Y132.2821
G01 X348.2821 Y132.4414
G00 Z2.0000


;No. 45: Engraving 82
G00 X346.2342 Y133.8798 Z2.0000
G00 Z0.5000
G01 Z-2.0000 F180
G01 X346.2833 Y133.0977 F1200
G01 X346.0282 Y132.1145
G01 X345.8833 Y131.5145
G01 X345.7827 Y131.2666
G01 X345.5348 Y130.7935
G01 X345.4605 Y130.4450
G01 X345.1611 Y130.0223
G01 X344.7144 Y129.3755
G01 X344.6641 Y128.9540
G01 X344.7887 Y128.5552
G01 X345.0869 Y127.8342
G01 X345.1875 Y127.3624
G01 X345.1372 Y126.9145
G01 X344.7144 Y125.7959
G01 X344.3911 Y125.3983
G01 X344.0677 Y125.2737
G01 X343.5707 Y125.4977
G01 X342.7994 Y125.7456
G01 X341.8545 Y126.5168
G01 X341.1336 Y127.2869
G01 X340.7252 Y127.6737
G01 X342.8198 Y123.0917
G01 X345.9492 Y117.1324
G01 X347.6079 Y114.7779
G01 X348.9109 Y111.9168
G01 X349.0318 Y111.4102
G01 X349.4115 Y107.8365
G01 X349.4438 Y106.8545
G01 X349.3420 Y105.9946
G01 X348.7540 Y104.5970
G01 X348.2713 Y104.0113
G01 X347.0594 Y103.2820
G01 X346.6677 Y103.5586
G01 X346.3647 Y103.7994
G00 Z2.0000


;No. 46: Engraving 4
G00 X339.0928 Y66.1884 Z2.0000
G00 Z0.5000
G01 Z-2.0000 F180
G01 X339.8162 Y66.4207 F1200
G01 X341.2761 Y66.6890
G01 X342.0965 Y66.7501
G01 X342.6953 Y66.7369
G01 X343.3767 Y66.5788
G01 X344.0210 Y66.2926
G01 X344.7120 Y66.1704
G01 X348.1923 Y66.4207
G01 X351.4414 Y66.4507
G01 X352.3037 Y66.3165
G01 X351.9839 Y65.4566
G01 X351.9564 Y65.0782
G01 X351.9324 Y57.3871
G01 X351.8306 Y54.6123
G01 X351.8630 Y50.2937
G01 X351.7803 Y49.8182
G01 X351.6594 Y49.5811
G01 X351.3073 Y49.2757
G01 X350.8582 Y49.1045
G01 X346.5887 Y48.0374
G01 X346.2174 Y48.0745
G01 X345.6893 Y48.3176
G01 X344.6186 Y49.0685
G01 X343.7791 Y49.9775
G01 X342.7084 Y50.8925
G01 X342.1755 Y51.5632
G01 X341.6461 Y53.2159
G01 X341.4845 Y54.6183
G01 X341.1228 Y55.6973
G01 X340.8306 Y57.4794
G01 X340.8222 Y58.1800
G01 X340.3994 Y59.5644
G01 X340.2378 Y60.8578
G01 X339.4593 Y62.6878
G01 X339.2174 Y64.3033
G01 Y65.4938
G01 X339.0928 Y66.1884
G01 X338.4162 Y67.4938
G01 X337.9288 Y69.3597
G01 X337.6413 Y71.3357
G01 X337.0485 Y73.2327
G01 X336.8401 Y74.3429
G01 X336.5994 Y74.7333
G01 X335.9168 Y75.4100
G01 X335.0832 Y76.9238
G01 X335.0138 Y77.4603
G01 X335.0964 Y77.9789
G01 X334.9395 Y78.8687
G01 X333.8222 Y81.7477
G01 X333.2377 Y82.9070
G01 X332.5611 Y85.3885
G01 X332.3299 Y86.7741
G01 X331.7635 Y87.9813
G01 X331.5275 Y88.9023
G01 X330.6425 Y90.9095
G01 X329.6832 Y92.0735
G01 X328.9227 Y93.4951
G01 X328.5610 Y94.5023
G01 X327.9539 Y95.4532
G01 X327.5646 Y96.2832
G01 X327.3563 Y97.0089
G01 X326.8592 Y97.7586
G01 X326.6832 Y98.1371
G01 X326.6089 Y99.2053
